;PYCAM-META-DATA: Filename: None
;PYCAM-META-DATA: Timestamp: 2013-04-19 15:51:43.406743
;PYCAM-META-DATA: Version: 0.5.1
;Estimated machine time: 63 minutes
G40 (disable tool radius compensation)
G49 (disable tool length compensation)
G80 (cancel modal motion)
G54 (select coordinate system 1)
G90 (disable incremental moves)
G21 (metric)
G61 (exact path mode)
F200.00000
S1000.00000
;PYCAM_TOOLPATH_SETTINGS: START
;[Bounds]
;maxz = -1.0
;maxx = 274.6421592
;maxy = 274.6900221
;minx = -24.3597512
;miny = -24.3102431
;minz = -1.0
;
;[Tool]
;torus_radius = 0.25
;speed = 1000.0
;shape = SphericalCutter
;tool_radius = 0.5
;feedrate = 200.0
;
;[Process]
;engrave_offset = 0.0
;step_down = 1.0
;generator = EngraveCutter
;postprocessor = SimpleCutter
;overlap_percent = 0
;milling_style = conventional
;material_allowance = 0.0
;pocketing_type = none
;path_direction = x
;
;PYCAM_TOOLPATH_SETTINGS: END
T3 M6
G0 Z25.0000
M3 (start spindle)
G04 P3 (wait for 3 seconds)
 X170.8080 Y208.9710
G1 Z-1.0000
 X174.3140
 X176.0170 Y203.4060
 X177.7780 Y208.9710
 X181.1760
 X177.4470 Y200.1900
 X174.4620
 X170.8080 Y208.9710
G0 Z25.0000
 X181.8370 Y206.3000
G1 Z-1.0000
 X181.8570 Y207.1320
 X181.9150 Y207.8990
 X182.0130 Y208.6000
 X182.1470 Y209.2370
 X182.3220 Y209.8100
 X182.5350 Y210.3170
 X182.7880 Y210.7600
 X183.0780 Y211.1360
 X183.4100 Y211.4610
 X183.7830 Y211.7420
 X184.1970 Y211.9780
 X184.6510 Y212.1720
 X185.1460 Y212.3240
 X185.6810 Y212.4320
 X186.2570 Y212.4960
 X186.8740 Y212.5180
 X187.4570 Y212.4990
 X187.9870 Y212.4420
 X188.4620 Y212.3460
 X188.8820 Y212.2110
 X189.2570 Y212.0510
 X189.5960 Y211.8670
 X189.8970 Y211.6580
 X190.1640 Y211.4260
 X190.3990 Y211.1830
 X190.6060 Y210.9320
 X190.7880 Y210.6750
 X190.9420 Y210.4100
 X191.0780 Y210.1330
 X191.2010 Y209.8350
 X191.3100 Y209.5140
 X191.4040 Y209.1690
 X191.5530 Y208.4830
 X191.6580 Y207.7850
 X191.7220 Y207.0690
 X191.7430 Y206.3420
 X191.7250 Y205.5440
 X191.6740 Y204.8030
 X191.5860 Y204.1150
 X191.4640 Y203.4850
 X191.3070 Y202.9080
 X191.1150 Y202.3880
 X190.8890 Y201.9220
 X190.6260 Y201.5130
 X190.3220 Y201.1540
 X189.9680 Y200.8430
 X189.5630 Y200.5810
 X189.1070 Y200.3650
 X188.6010 Y200.1990
 X188.0460 Y200.0790
 X187.4390 Y200.0070
 X186.7820 Y199.9830
 X186.4080 Y199.9900
 X186.0540 Y200.0140
 X185.7170 Y200.0510
 X185.3990 Y200.1060
 X185.0990 Y200.1740
 X184.8180 Y200.2570
 X184.5540 Y200.3570
 X184.3100 Y200.4710
 X183.8600 Y200.7430
 X183.4510 Y201.0720
 X183.0860 Y201.4580
 X182.7640 Y201.9010
 X182.5570 Y202.2670
 X182.3740 Y202.6930
 X182.2140 Y203.1810
 X182.0780 Y203.7280
 X181.9720 Y204.3260
 X181.8970 Y204.9540
 X181.8530 Y205.6120
 X181.8370 Y206.3000
G0 Z25.0000
 X193.4790 Y203.5640
G1 Z-1.0000
 X197.0760
 Y200.1900
 X193.4790
 Y203.5640
G0 Z25.0000
 X206.4360 Y212.5180
G1 Z-1.0000
 Y200.1900
 X203.0290
 Y208.2680
 X202.6190 Y207.9680
 X202.2150 Y207.7000
 X201.8170 Y207.4600
 X201.4250 Y207.2510
 X201.0150 Y207.0580
 X200.5570 Y206.8710
 X200.0490 Y206.6860
 X199.4900 Y206.5070
 Y209.2680
 X199.9080 Y209.4110
 X200.3010 Y209.5600
 X200.6720 Y209.7150
 X201.0180 Y209.8780
 X201.3400 Y210.0490
 X201.6380 Y210.2250
 X201.9110 Y210.4080
 X202.1610 Y210.6000
 X202.6110 Y211.0110
 X203.0080 Y211.4680
 X203.3540 Y211.9690
 X203.6490 Y212.5180
 X206.4360
G0 Z25.0000
 X225.1420 Y200.1900
G1 Z-1.0000
 X225.1330 Y199.5440
 X225.1080 Y198.9030
 X225.0680 Y198.2670
 X225.0130 Y197.6330
 X224.9400 Y197.0060
 X224.8530 Y196.3820
 X224.7500 Y195.7640
 X224.6330 Y195.1510
 X224.5010 Y194.5440
 X224.3540 Y193.9420
 X224.1930 Y193.3460
 X224.0170 Y192.7560
 X223.8280 Y192.1720
 X223.6240 Y191.5940
 X223.4070 Y191.0240
 X223.1760 Y190.4580
 X222.9330 Y189.9010
 X222.6760 Y189.3510
 X222.4060 Y188.8080
 X222.1240 Y188.2740
 X221.8290 Y187.7460
 X221.5220 Y187.2260
 X221.2030 Y186.7150
 X220.8720 Y186.2120
 X220.5290 Y185.7180
 X220.1750 Y185.2320
 X219.8080 Y184.7560
 X219.4320 Y184.2880
 X219.0440 Y183.8290
 X218.6470 Y183.3810
 X218.2370 Y182.9420
 X217.8190 Y182.5130
 X217.3900 Y182.0930
 X216.9500 Y181.6850
 X216.5010 Y181.2860
 X216.0430 Y180.8990
 X215.5760 Y180.5220
 X215.0990 Y180.1570
 X214.6140 Y179.8030
 X214.1190 Y179.4600
 X213.6150 Y179.1280
 X213.1040 Y178.8080
 X212.5850 Y178.5010
 X212.0580 Y178.2070
 X211.5220 Y177.9250
 X210.9790 Y177.6560
 X210.4290 Y177.3990
 X209.8720 Y177.1540
 X209.3080 Y176.9240
 X208.7370 Y176.7070
 X208.1600 Y176.5030
 X207.5750 Y176.3140
 X206.9850 Y176.1380
 X206.3890 Y175.9760
 X205.7880 Y175.8290
 X205.1790 Y175.6970
 X204.5670 Y175.5810
 X203.9490 Y175.4780
 X203.3250 Y175.3900
 X202.6970 Y175.3180
 X202.0640 Y175.2630
 X201.4280 Y175.2220
 X200.7860 Y175.1970
 X200.1400 Y175.1890
 X199.4960 Y175.1970
 X198.8540 Y175.2220
 X198.2170 Y175.2630
 X197.5850 Y175.3180
 X196.9570 Y175.3900
 X196.3330 Y175.4780
 X195.7150 Y175.5810
 X195.1030 Y175.6970
 X194.4940 Y175.8290
 X193.8930 Y175.9760
 X193.2970 Y176.1380
 X192.7070 Y176.3140
 X192.1220 Y176.5030
 X191.5460 Y176.7070
 X190.9740 Y176.9240
 X190.4100 Y177.1540
 X189.8530 Y177.3990
 X189.3030 Y177.6560
 X188.7600 Y177.9250
 X188.2250 Y178.2070
 X187.6970 Y178.5010
 X187.1780 Y178.8080
 X186.6670 Y179.1280
 X186.1640 Y179.4600
 X185.6690 Y179.8030
 X185.1830 Y180.1570
 X184.7070 Y180.5220
 X184.2390 Y180.8990
 X183.7810 Y181.2860
 X183.3320 Y181.6850
 X182.8930 Y182.0930
 X182.4640 Y182.5130
 X182.0440 Y182.9420
 X181.6360 Y183.3810
 X181.2370 Y183.8290
 X180.8500 Y184.2880
 X180.4740 Y184.7560
 X180.1080 Y185.2320
 X179.7540 Y185.7180
 X179.4110 Y186.2120
 X179.0810 Y186.7150
 X178.7610 Y187.2260
 X178.4540 Y187.7460
 X178.1580 Y188.2740
 X177.8760 Y188.8080
 X177.6070 Y189.3510
 X177.3500 Y189.9010
 X177.1070 Y190.4580
 X176.8760 Y191.0240
 X176.6580 Y191.5940
 X176.4560 Y192.1720
 X176.2650 Y192.7560
 X176.0900 Y193.3460
 X175.9290 Y193.9420
 X175.7820 Y194.5440
 X175.6500 Y195.1510
 X175.5320 Y195.7640
 X175.4290 Y196.3820
 X175.3430 Y197.0060
 X175.2710 Y197.6330
 X175.2150 Y198.2670
 X175.1750 Y198.9030
 X175.1500 Y199.5440
 X175.1420 Y200.1900
 X175.1500 Y200.8350
 X175.1750 Y201.4760
 X175.2150 Y202.1140
 X175.2710 Y202.7460
 X175.3430 Y203.3740
 X175.4290 Y203.9970
 X175.5320 Y204.6150
 X175.6500 Y205.2280
 X175.7820 Y205.8360
 X175.9290 Y206.4380
 X176.0900 Y207.0350
 X176.2650 Y207.6250
 X176.4560 Y208.2080
 X176.6580 Y208.7860
 X176.8760 Y209.3570
 X177.1070 Y209.9210
 X177.3500 Y210.4790
 X177.6070 Y211.0290
 X177.8760 Y211.5720
 X178.1580 Y212.1070
 X178.4540 Y212.6350
 X178.7610 Y213.1540
 X179.0810 Y213.6650
 X179.4110 Y214.1680
 X179.7540 Y214.6630
 X180.1080 Y215.1490
 X180.4740 Y215.6250
 X180.8500 Y216.0930
 X181.2370 Y216.5510
 X181.6360 Y217.0000
 X182.0440 Y217.4390
 X182.4640 Y217.8680
 X182.8930 Y218.2880
 X183.3320 Y218.6960
 X183.7810 Y219.0940
 X184.2390 Y219.4820
 X184.7070 Y219.8580
 X185.1830 Y220.2240
 X185.6690 Y220.5780
 X186.1640 Y220.9210
 X186.6670 Y221.2510
 X187.1780 Y221.5710
 X187.6970 Y221.8780
 X188.2250 Y222.1720
 X188.7600 Y222.4560
 X189.3030 Y222.7250
 X189.8530 Y222.9820
 X190.4100 Y223.2250
 X190.9740 Y223.4560
 X191.5460 Y223.6740
 X192.1220 Y223.8760
 X192.7070 Y224.0670
 X193.2970 Y224.2420
 X193.8930 Y224.4030
 X194.4940 Y224.5500
 X195.1030 Y224.6820
 X195.7150 Y224.8000
 X196.3330 Y224.9010
 X196.9570 Y224.9890
 X197.5850 Y225.0610
 X198.2170 Y225.1170
 X198.8540 Y225.1570
 X199.4960 Y225.1820
 X200.1400 Y225.1900
 X200.7860 Y225.1820
 X201.4280 Y225.1570
 X202.0640 Y225.1170
 X202.6970 Y225.0610
 X203.3250 Y224.9890
 X203.9490 Y224.9010
 X204.5670 Y224.8000
 X205.1790 Y224.6820
 X205.7880 Y224.5500
 X206.3890 Y224.4030
 X206.9850 Y224.2420
 X207.5750 Y224.0670
 X208.1600 Y223.8760
 X208.7370 Y223.6740
 X209.3080 Y223.4560
 X209.8720 Y223.2250
 X210.4290 Y222.9820
 X210.9790 Y222.7250
 X211.5220 Y222.4560
 X212.0580 Y222.1720
 X212.5850 Y221.8780
 X213.1040 Y221.5710
 X213.6150 Y221.2510
 X214.1190 Y220.9210
 X214.6140 Y220.5780
 X215.0990 Y220.2240
 X215.5760 Y219.8580
 X216.0430 Y219.4820
 X216.5010 Y219.0940
 X216.9500 Y218.6960
 X217.3900 Y218.2880
 X217.8190 Y217.8680
 X218.2370 Y217.4390
 X218.6470 Y217.0000
 X219.0440 Y216.5510
 X219.4320 Y216.0930
 X219.8080 Y215.6250
 X220.1750 Y215.1490
 X220.5290 Y214.6630
 X220.8720 Y214.1680
 X221.2030 Y213.6650
 X221.5220 Y213.1540
 X221.8290 Y212.6350
 X222.1240 Y212.1070
 X222.4060 Y211.5720
 X222.6760 Y211.0290
 X222.9330 Y210.4790
 X223.1760 Y209.9210
 X223.4070 Y209.3570
 X223.6240 Y208.7860
 X223.8280 Y208.2080
 X224.0170 Y207.6250
 X224.1930 Y207.0350
 X224.3540 Y206.4380
 X224.5010 Y205.8360
 X224.6330 Y205.2280
 X224.7500 Y204.6150
 X224.8530 Y203.9970
 X224.9400 Y203.3740
 X225.0130 Y202.7460
 X225.0680 Y202.1140
 X225.1080 Y201.4760
 X225.1330 Y200.8350
 X225.1420 Y200.1900
G0 Z25.0000
 Y225.1900
G1 Z-1.0000
 X25.1411 Y25.1901
G0 Z25.0000
 Y75.1893
G1 Z-1.0000
 X50.1414
 Y50.1904
 X25.1411
 Y75.1893
G0 Z25.0000
 X75.1417 Y50.1904
G1 Z-1.0000
 X75.1335 Y49.5451
 X75.1092 Y48.9038
 X75.0688 Y48.2668
 X75.0125 Y47.6342
 X74.9407 Y47.0061
 X74.8536 Y46.3829
 X74.7511 Y45.7647
 X74.6336 Y45.1518
 X74.5014 Y44.5442
 X74.3544 Y43.9422
 X74.1932 Y43.3460
 X74.0176 Y42.7558
 X73.8281 Y42.1718
 X73.6246 Y41.5942
 X73.4075 Y41.0231
 X73.1769 Y40.4589
 X72.9331 Y39.9015
 X72.6762 Y39.3514
 X72.4065 Y38.8086
 X72.1240 Y38.2735
 X71.8293 Y37.7460
 X71.5221 Y37.2265
 X71.2029 Y36.7151
 X70.8718 Y36.2122
 X70.5290 Y35.7178
 X70.1747 Y35.2319
 X69.8093 Y34.7553
 X69.4325 Y34.2876
 X69.0450 Y33.8293
 X68.6468 Y33.3806
 X68.2381 Y32.9414
 X67.8190 Y32.5122
 X67.3899 Y32.0932
 X66.9507 Y31.6844
 X66.5019 Y31.2863
 X66.0436 Y30.8987
 X65.5760 Y30.5221
 X65.0992 Y30.1565
 X64.6135 Y29.8024
 X64.1190 Y29.4596
 X63.6160 Y29.1285
 X63.1047 Y28.8093
 X62.5851 Y28.5022
 X62.0576 Y28.2074
 X61.5225 Y27.9250
 X60.9797 Y27.6553
 X60.4296 Y27.3985
 X59.8724 Y27.1547
 X59.3081 Y26.9242
 X58.7371 Y26.7071
 X58.1594 Y26.5036
 X57.5754 Y26.3140
 X56.9853 Y26.1385
 X56.3892 Y25.9771
 X55.7872 Y25.8303
 X55.1796 Y25.6981
 X54.5667 Y25.5806
 X53.9485 Y25.4782
 X53.3254 Y25.3910
 X52.6974 Y25.3192
 X52.0649 Y25.2631
 X51.4278 Y25.2226
 X50.7867 Y25.1983
 X50.1414 Y25.1901
 X49.4961 Y25.1983
 X48.8547 Y25.2226
 X48.2178 Y25.2631
 X47.5850 Y25.3192
 X46.9571 Y25.3910
 X46.3339 Y25.4782
 X45.7157 Y25.5806
 X45.1026 Y25.6981
 X44.4951 Y25.8303
 X43.8931 Y25.9771
 X43.2969 Y26.1385
 X42.7067 Y26.3140
 X42.1228 Y26.5036
 X41.5451 Y26.7071
 X40.9740 Y26.9242
 X40.4097 Y27.1547
 X39.8525 Y27.3985
 X39.3024 Y27.6553
 X38.7596 Y27.9250
 X38.2243 Y28.2074
 X37.6969 Y28.5022
 X37.1774 Y28.8093
 X36.6661 Y29.1285
 X36.1631 Y29.4596
 X35.6686 Y29.8024
 X35.1829 Y30.1565
 X34.7061 Y30.5221
 X34.2385 Y30.8987
 X33.7801 Y31.2863
 X33.3314 Y31.6844
 X32.8924 Y32.0932
 X32.4632 Y32.5122
 X32.0442 Y32.9414
 X31.6354 Y33.3806
 X31.2371 Y33.8293
 X30.8496 Y34.2876
 X30.4729 Y34.7553
 X30.1075 Y35.2319
 X29.7532 Y35.7178
 X29.4104 Y36.2122
 X29.0794 Y36.7151
 X28.7601 Y37.2265
 X28.4531 Y37.7460
 X28.1582 Y38.2735
 X27.8760 Y38.8086
 X27.6061 Y39.3514
 X27.3493 Y39.9015
 X27.1056 Y40.4589
 X26.8750 Y41.0231
 X26.6579 Y41.5942
 X26.4546 Y42.1718
 X26.2649 Y42.7558
 X26.0893 Y43.3460
 X25.9281 Y43.9422
 X25.7813 Y44.5442
 X25.6489 Y45.1518
 X25.5315 Y45.7647
 X25.4290 Y46.3829
 X25.3418 Y47.0061
 X25.2701 Y47.6342
 X25.2139 Y48.2668
 X25.1736 Y48.9038
 X25.1492 Y49.5451
 X25.1411 Y50.1904
 X25.1492 Y50.8357
 X25.1736 Y51.4768
 X25.2139 Y52.1139
 X25.2701 Y52.7464
 X25.3418 Y53.3744
 X25.4290 Y53.9975
 X25.5315 Y54.6157
 X25.6489 Y55.2286
 X25.7813 Y55.8361
 X25.9281 Y56.4381
 X26.0893 Y57.0342
 X26.2649 Y57.6244
 X26.4546 Y58.2083
 X26.6579 Y58.7860
 X26.8750 Y59.3569
 X27.1056 Y59.9213
 X27.3493 Y60.4785
 X27.6061 Y61.0285
 X27.8760 Y61.5712
 X28.1582 Y62.1064
 X28.4531 Y62.6339
 X28.7601 Y63.1533
 X29.0794 Y63.6647
 X29.4104 Y64.1676
 X29.7532 Y64.6621
 X30.1075 Y65.1478
 X30.4729 Y65.6244
 X30.8496 Y66.0921
 X31.2371 Y66.5504
 X31.6354 Y66.9992
 X32.0442 Y67.4382
 X32.4632 Y67.8674
 X32.8924 Y68.2864
 X33.3314 Y68.6951
 X33.7801 Y69.0933
 X34.2385 Y69.4808
 X34.7061 Y69.8575
 X35.1829 Y70.2229
 X35.6686 Y70.5772
 X36.1631 Y70.9199
 X36.6661 Y71.2510
 X37.1774 Y71.5701
 X37.6969 Y71.8772
 X38.2243 Y72.1721
 X38.7596 Y72.4544
 X39.3024 Y72.7242
 X39.8525 Y72.9810
 X40.4097 Y73.2249
 X40.9740 Y73.4554
 X41.5451 Y73.6724
 X42.1228 Y73.8758
 X42.7067 Y74.0654
 X43.2969 Y74.2410
 X43.8931 Y74.4022
 X44.4951 Y74.5492
 X45.1026 Y74.6814
 X45.7157 Y74.7989
 X46.3339 Y74.9013
 X46.9571 Y74.9885
 X47.5850 Y75.0603
 X48.2178 Y75.1164
 X48.8547 Y75.1568
 X49.4961 Y75.1811
 X50.1414 Y75.1893
 X50.7867 Y75.1811
 X51.4278 Y75.1568
 X52.0649 Y75.1164
 X52.6974 Y75.0603
 X53.3254 Y74.9885
 X53.9485 Y74.9013
 X54.5667 Y74.7989
 X55.1796 Y74.6814
 X55.7872 Y74.5492
 X56.3892 Y74.4022
 X56.9853 Y74.2410
 X57.5754 Y74.0654
 X58.1594 Y73.8758
 X58.7371 Y73.6724
 X59.3081 Y73.4554
 X59.8724 Y73.2249
 X60.4296 Y72.9810
 X60.9797 Y72.7242
 X61.5225 Y72.4544
 X62.0576 Y72.1721
 X62.5851 Y71.8772
 X63.1047 Y71.5701
 X63.6160 Y71.2510
 X64.1190 Y70.9199
 X64.6135 Y70.5772
 X65.0992 Y70.2229
 X65.5760 Y69.8575
 X66.0436 Y69.4808
 X66.5019 Y69.0933
 X66.9507 Y68.6951
 X67.3899 Y68.2864
 X67.8190 Y67.8674
 X68.2381 Y67.4382
 X68.6468 Y66.9992
 X69.0450 Y66.5504
 X69.4325 Y66.0921
 X69.8093 Y65.6244
 X70.1747 Y65.1478
 X70.5290 Y64.6621
 X70.8718 Y64.1676
 X71.2029 Y63.6647
 X71.5221 Y63.1533
 X71.8293 Y62.6339
 X72.1240 Y62.1064
 X72.4065 Y61.5712
 X72.6762 Y61.0285
 X72.9331 Y60.4785
 X73.1769 Y59.9213
 X73.4075 Y59.3569
 X73.6246 Y58.7860
 X73.8281 Y58.2083
 X74.0176 Y57.6244
 X74.1932 Y57.0342
 X74.3544 Y56.4381
 X74.5014 Y55.8361
 X74.6336 Y55.2286
 X74.7511 Y54.6157
 X74.8536 Y53.9975
 X74.9407 Y53.3744
 X75.0125 Y52.7464
 X75.0688 Y52.1139
 X75.1092 Y51.4768
 X75.1335 Y50.8357
 X75.1417 Y50.1904
G0 Z25.0000
 X87.1418 Y63.1896
G1 Z-1.0000
 X88.1408
 Y62.1904
 X87.1418
 Y63.1896
G0 Z25.0000
 X85.1408 Y65.1901
G1 Z-1.0000
 X90.1418
 Y60.1894
 X85.1408
 Y65.1901
G0 Z25.0000
 X83.1412 Y67.1897
G1 Z-1.0000
 X92.1414
 Y58.1900
 X83.1412
 Y67.1897
G0 Z25.0000
 X81.1417 Y69.1892
G1 Z-1.0000
 X94.1406
 Y56.1904
 X81.1417
 Y69.1892
G0 Z25.0000
 X79.1407 Y71.1903
G1 Z-1.0000
 X96.1415
 Y54.1894
 X79.1407
 Y71.1903
G0 Z25.0000
 X77.1412 Y73.1897
G1 Z-1.0000
 X98.1410
 Y52.1899
 X77.1412
 Y73.1897
G0 Z25.0000
 X75.1417 Y75.1893
G1 Z-1.0000
 X100.1410
 Y50.1904
 X75.1417
 Y75.1893
G0 Z25.0000
 X85.1408 Y115.1900
G1 Z-1.0000
 X90.1418
 Y110.1900
 X85.1408
 Y115.1900
G0 Z25.0000
 X80.1412 Y120.1910
G1 Z-1.0000
 X95.1410
 Y105.1910
 X80.1412
 Y120.1910
G0 Z25.0000
 X75.1417 Y125.1900
G1 Z-1.0000
 X100.1410
 Y100.1900
 X75.1417
 Y125.1900
G0 Z25.0000
 X125.1410 Y150.1900
G1 Z-1.0000
 X125.1330 Y149.5460
 X125.1080 Y148.9040
 X125.0680 Y148.2670
 X125.0120 Y147.6350
 X124.9400 Y147.0070
 X124.8530 Y146.3830
 X124.7500 Y145.7650
 X124.6330 Y145.1510
 X124.5010 Y144.5440
 X124.3540 Y143.9420
 X124.1930 Y143.3460
 X124.0170 Y142.7560
 X123.8270 Y142.1720
 X123.6240 Y141.5940
 X123.4070 Y141.0240
 X123.1760 Y140.4580
 X122.9320 Y139.9010
 X122.6760 Y139.3510
 X122.4060 Y138.8090
 X122.1240 Y138.2740
 X121.8290 Y137.7460
 X121.5220 Y137.2270
 X121.2030 Y136.7150
 X120.8710 Y136.2120
 X120.5290 Y135.7180
 X120.1740 Y135.2320
 X119.8090 Y134.7550
 X119.4320 Y134.2880
 X119.0450 Y133.8290
 X118.6470 Y133.3810
 X118.2380 Y132.9420
 X117.8190 Y132.5120
 X117.3900 Y132.0930
 X116.9510 Y131.6850
 X116.5020 Y131.2860
 X116.0430 Y130.8990
 X115.5760 Y130.5220
 X115.0990 Y130.1570
 X114.6130 Y129.8030
 X114.1190 Y129.4600
 X113.6160 Y129.1290
 X113.1040 Y128.8090
 X112.5850 Y128.5020
 X112.0580 Y128.2080
 X111.5220 Y127.9250
 X110.9800 Y127.6550
 X110.4290 Y127.3990
 X109.8720 Y127.1550
 X109.3080 Y126.9240
 X108.7370 Y126.7070
 X108.1590 Y126.5040
 X107.5750 Y126.3140
 X106.9850 Y126.1390
 X106.3890 Y125.9770
 X105.7870 Y125.8300
 X105.1790 Y125.6980
 X104.5660 Y125.5810
 X103.9480 Y125.4780
 X103.3250 Y125.3910
 X102.6970 Y125.3190
 X102.0640 Y125.2630
 X101.4270 Y125.2230
 X100.7860 Y125.1980
 X100.1410 Y125.1900
 X99.4953 Y125.1980
 X98.8542 Y125.2230
 X98.2171 Y125.2630
 X97.5846 Y125.3190
 X96.9567 Y125.3910
 X96.3335 Y125.4780
 X95.7154 Y125.5810
 X95.1025 Y125.6980
 X94.4949 Y125.8300
 X93.8931 Y125.9770
 X93.2969 Y126.1390
 X92.7067 Y126.3140
 X92.1228 Y126.5040
 X91.5451 Y126.7070
 X90.9742 Y126.9240
 X90.4100 Y127.1550
 X89.8526 Y127.3990
 X89.3026 Y127.6550
 X88.7599 Y127.9250
 X88.2247 Y128.2080
 X87.6972 Y128.5020
 X87.1778 Y128.8090
 X86.6664 Y129.1290
 X86.1635 Y129.4600
 X85.6690 Y129.8030
 X85.1833 Y130.1570
 X84.7067 Y130.5220
 X84.2390 Y130.8990
 X83.7807 Y131.2860
 X83.3319 Y131.6850
 X82.8929 Y132.0930
 X82.4638 Y132.5120
 X82.0447 Y132.9420
 X81.6360 Y133.3810
 X81.2378 Y133.8290
 X80.8501 Y134.2880
 X80.4736 Y134.7550
 X80.1081 Y135.2320
 X79.7539 Y135.7180
 X79.4111 Y136.2120
 X79.0800 Y136.7150
 X78.7608 Y137.2270
 X78.4537 Y137.7460
 X78.1589 Y138.2740
 X77.8765 Y138.8090
 X77.6068 Y139.3510
 X77.3500 Y139.9010
 X77.1061 Y140.4580
 X76.8757 Y141.0240
 X76.6586 Y141.5940
 X76.4551 Y142.1720
 X76.2656 Y142.7560
 X76.0900 Y143.3460
 X75.9286 Y143.9420
 X75.7818 Y144.5440
 X75.6496 Y145.1510
 X75.5321 Y145.7650
 X75.4297 Y146.3830
 X75.3425 Y147.0070
 X75.2707 Y147.6350
 X75.2146 Y148.2670
 X75.1742 Y148.9040
 X75.1499 Y149.5460
 X75.1417 Y150.1900
 X75.1499 Y150.8360
 X75.1742 Y151.4760
 X75.2146 Y152.1140
 X75.2707 Y152.7470
 X75.3425 Y153.3750
 X75.4297 Y153.9970
 X75.5321 Y154.6150
 X75.6496 Y155.2290
 X75.7818 Y155.8360
 X75.9286 Y156.4380
 X76.0900 Y157.0350
 X76.2656 Y157.6250
 X76.4551 Y158.2080
 X76.6586 Y158.7860
 X76.8757 Y159.3570
 X77.1061 Y159.9210
 X77.3500 Y160.4780
 X77.6068 Y161.0290
 X77.8765 Y161.5710
 X78.1589 Y162.1070
 X78.4537 Y162.6330
 X78.7608 Y163.1530
 X79.0800 Y163.6650
 X79.4111 Y164.1680
 X79.7539 Y164.6630
 X80.1081 Y165.1470
 X80.4736 Y165.6250
 X80.8501 Y166.0920
 X81.2378 Y166.5500
 X81.6360 Y166.9990
 X82.0447 Y167.4390
 X82.4638 Y167.8680
 X82.8929 Y168.2860
 X83.3319 Y168.6960
 X83.7807 Y169.0930
 X84.2390 Y169.4810
 X84.7067 Y169.8570
 X85.1833 Y170.2240
 X85.6690 Y170.5780
 X86.1635 Y170.9190
 X86.6664 Y171.2510
 X87.1778 Y171.5710
 X87.6972 Y171.8780
 X88.2247 Y172.1720
 X88.7599 Y172.4540
 X89.3026 Y172.7240
 X89.8526 Y172.9810
 X90.4100 Y173.2250
 X90.9742 Y173.4560
 X91.5451 Y173.6720
 X92.1228 Y173.8760
 X92.7067 Y174.0650
 X93.2969 Y174.2420
 X93.8931 Y174.4030
 X94.4949 Y174.5500
 X95.1025 Y174.6820
 X95.7154 Y174.7990
 X96.3335 Y174.9010
 X96.9567 Y174.9890
 X97.5846 Y175.0610
 X98.2171 Y175.1170
 X98.8542 Y175.1570
 X99.4953 Y175.1820
 X100.1410 Y175.1890
 X100.7860 Y175.1820
 X101.4270 Y175.1570
 X102.0640 Y175.1170
 X102.6970 Y175.0610
 X103.3250 Y174.9890
 X103.9480 Y174.9010
 X104.5660 Y174.7990
 X105.1790 Y174.6820
 X105.7870 Y174.5500
 X106.3890 Y174.4030
 X106.9850 Y174.2420
 X107.5750 Y174.0650
 X108.1590 Y173.8760
 X108.7370 Y173.6720
 X109.3080 Y173.4560
 X109.8720 Y173.2250
 X110.4290 Y172.9810
 X110.9800 Y172.7240
 X111.5220 Y172.4540
 X112.0580 Y172.1720
 X112.5850 Y171.8780
 X113.1040 Y171.5710
 X113.6160 Y171.2510
 X114.1190 Y170.9190
 X114.6130 Y170.5780
 X115.0990 Y170.2240
 X115.5760 Y169.8570
 X116.0430 Y169.4810
 X116.5020 Y169.0930
 X116.9510 Y168.6960
 X117.3900 Y168.2860
 X117.8190 Y167.8680
 X118.2380 Y167.4390
 X118.6470 Y166.9990
 X119.0450 Y166.5500
 X119.4320 Y166.0920
 X119.8090 Y165.6250
 X120.1740 Y165.1470
 X120.5290 Y164.6630
 X120.8710 Y164.1680
 X121.2030 Y163.6650
 X121.5220 Y163.1530
 X121.8290 Y162.6330
 X122.1240 Y162.1070
 X122.4060 Y161.5710
 X122.6760 Y161.0290
 X122.9320 Y160.4780
 X123.1760 Y159.9210
 X123.4070 Y159.3570
 X123.6240 Y158.7860
 X123.8270 Y158.2080
 X124.0170 Y157.6250
 X124.1930 Y157.0350
 X124.3540 Y156.4380
 X124.5010 Y155.8360
 X124.6330 Y155.2290
 X124.7500 Y154.6150
 X124.8530 Y153.9970
 X124.9400 Y153.3750
 X125.0120 Y152.7470
 X125.0680 Y152.1140
 X125.1080 Y151.4760
 X125.1330 Y150.8360
 X125.1410 Y150.1900
G0 Z25.0000
 X121.8100 Y176.8760
G1 Z-1.0000
 X123.6090
 Y175.1890
 X121.8100
 Y176.8760
G0 Z25.0000
 X115.9890 Y178.2440
G1 Z-1.0000
 X115.9990 Y178.6600
 X116.0280 Y179.0440
 X116.0770 Y179.3940
 X116.1440 Y179.7140
 X116.2320 Y180.0000
 X116.3380 Y180.2530
 X116.4640 Y180.4750
 X116.6100 Y180.6630
 X116.7760 Y180.8250
 X116.9620 Y180.9650
 X117.1690 Y181.0830
 X117.3960 Y181.1810
 X117.6440 Y181.2570
 X117.9110 Y181.3100
 X118.1990 Y181.3430
 X118.5070 Y181.3540
 X118.7990 Y181.3440
 X119.0640 Y181.3150
 X119.3020 Y181.2670
 X119.5120 Y181.2000
 X119.6990 Y181.1190
 X119.8680 Y181.0280
 X120.0190 Y180.9240
 X120.1530 Y180.8080
 X120.3740 Y180.5610
 X120.5410 Y180.2990
 X120.6710 Y180.0130
 X120.7730 Y179.6790
 X120.8470 Y179.3360
 X120.9000 Y178.9860
 X120.9320 Y178.6290
 X120.9420 Y178.2650
 X120.9330 Y177.8670
 X120.9070 Y177.4960
 X120.8640 Y177.1530
 X120.8030 Y176.8370
 X120.7240 Y176.5490
 X120.6280 Y176.2890
 X120.5150 Y176.0560
 X120.3840 Y175.8510
 X120.2320 Y175.6720
 X120.0550 Y175.5170
 X119.8520 Y175.3850
 X119.6240 Y175.2780
 X119.3720 Y175.1930
 X119.0930 Y175.1330
 X118.7900 Y175.0990
 X118.4620 Y175.0860
 X118.0980 Y175.1010
 X117.7700 Y175.1470
 X117.4800 Y175.2240
 X117.2260 Y175.3310
 X117.0010 Y175.4670
 X116.7970 Y175.6310
 X116.6140 Y175.8240
 X116.4530 Y176.0460
 X116.3490 Y176.2280
 X116.2570 Y176.4420
 X116.1770 Y176.6850
 X116.1090 Y176.9580
 X116.0570 Y177.2580
 X116.0190 Y177.5720
 X115.9970 Y177.9000
 X115.9890 Y178.2440
G0 Z25.0000
 X110.4740 Y179.5790
G1 Z-1.0000
 X112.2270
 X113.0790 Y176.7970
 X113.9600 Y179.5790
 X115.6590
 X113.7940 Y175.1890
 X112.3020
 X110.4740 Y179.5790
G0 Z25.0000
 X102.4920
G1 Z-1.0000
 X104.0580
 Y178.8650
 X104.2350 Y179.0680
 X104.4120 Y179.2400
 X104.5900 Y179.3810
 X104.7690 Y179.4890
 X104.9590 Y179.5720
 X105.1680 Y179.6320
 X105.3970 Y179.6680
 X105.6460 Y179.6790
 X105.9760 Y179.6530
 X106.2680 Y179.5750
 X106.5220 Y179.4440
 X106.7370 Y179.2610
 X106.9110 Y179.0260
 X107.0350 Y178.7350
 X107.1090 Y178.3860
 X107.1340 Y177.9810
 Y175.1890
 X105.4430
 Y177.6040
 X105.4340 Y177.7960
 X105.4050 Y177.9570
 X105.3570 Y178.0860
 X105.2900 Y178.1860
 X105.2060 Y178.2630
 X105.1060 Y178.3170
 X104.9910 Y178.3500
 X104.8600 Y178.3600
 X104.7150 Y178.3460
 X104.5830 Y178.3030
 X104.4670 Y178.2310
 X104.3640 Y178.1290
 X104.2810 Y177.9900
 X104.2220 Y177.8060
 X104.1860 Y177.5750
 X104.1740 Y177.2990
 Y175.1890
 X102.4920
 Y179.5790
G0 Z25.0000
 X98.3244
G1 Z-1.0000
 X99.8996
 Y178.8610
 X100.0140 Y179.0760
 X100.1300 Y179.2540
 X100.2470 Y179.3960
 X100.3670 Y179.5010
 X100.4960 Y179.5790
 X100.6380 Y179.6350
 X100.7950 Y179.6680
 X100.9660 Y179.6790
 X101.1570 Y179.6650
 X101.3560 Y179.6210
 X101.5640 Y179.5490
 X101.7810 Y179.4470
 X101.2600 Y178.2490
 X101.1190 Y178.3030
 X100.9930 Y178.3420
 X100.8830 Y178.3650
 X100.7880 Y178.3720
 X100.6320 Y178.3560
 X100.4950 Y178.3040
 X100.3760 Y178.2190
 X100.2760 Y178.1000
 X100.2150 Y177.9930
 X100.1620 Y177.8650
 X100.1170 Y177.7170
 X100.0800 Y177.5470
 X100.0520 Y177.3580
 X100.0320 Y177.1460
 X100.0190 Y176.9140
 X100.0150 Y176.6610
 Y175.1890
 X98.3244
 Y179.5790
G0 Z25.0000
 X97.5265 Y176.9670
G1 Z-1.0000
 X94.1532
 X94.1839 Y176.7780
 X94.2307 Y176.6140
 X94.2935 Y176.4750
 X94.3722 Y176.3640
 X94.5035 Y176.2390
 X94.6533 Y176.1500
 X94.8217 Y176.0960
 X95.0086 Y176.0780
 X95.2506 Y176.1100
 X95.4800 Y176.2030
 X95.6218 Y176.3110
 X95.7736 Y176.4790
 X97.4315 Y176.3260
 X97.2315 Y176.0190
 X97.0119 Y175.7580
 X96.7726 Y175.5430
 X96.5136 Y175.3750
 X96.2157 Y175.2500
 X95.8593 Y175.1610
 X95.4447 Y175.1080
 X94.9717 Y175.0900
 X94.5586 Y175.1060
 X94.1924 Y175.1510
 X93.8725 Y175.2280
 X93.5990 Y175.3350
 X93.3596 Y175.4760
 X93.1412 Y175.6540
 X92.9442 Y175.8670
 X92.7682 Y176.1150
 X92.6253 Y176.3960
 X92.5232 Y176.7000
 X92.4619 Y177.0260
 X92.4415 Y177.3760
 X92.4518 Y177.6280
 X92.4826 Y177.8670
 X92.5339 Y178.0930
 X92.6058 Y178.3080
 X92.6982 Y178.5100
 X92.8113 Y178.7000
 X92.9447 Y178.8780
 X93.0987 Y179.0430
 X93.2719 Y179.1920
 X93.4607 Y179.3210
 X93.6651 Y179.4310
 X93.8853 Y179.5190
 X94.1210 Y179.5900
 X94.3724 Y179.6390
 X94.6393 Y179.6690
 X94.9219 Y179.6790
 X95.3685 Y179.6610
 X95.7654 Y179.6080
 X96.1126 Y179.5180
 X96.4103 Y179.3940
 X96.6668 Y179.2350
 X96.8908 Y179.0440
 X97.0824 Y178.8220
 X97.2414 Y178.5670
 X97.3661 Y178.2760
 X97.4553 Y177.9440
 X97.5086 Y177.5710
 X97.5265 Y177.1570
 Y176.9670
G0 Z25.0000
 X90.9285 Y181.2500
G1 Z-1.0000
 Y179.5790
 X91.8544
 Y178.3530
 X90.9285
 Y176.7930
 X90.9318 Y176.6650
 X90.9419 Y176.5600
 X90.9586 Y176.4790
 X90.9821 Y176.4210
 X91.0313 Y176.3600
 X91.0960 Y176.3170
 X91.1761 Y176.2900
 X91.2717 Y176.2810
 X91.3739 Y176.2880
 X91.4947 Y176.3080
 X91.6342 Y176.3420
 X91.7924 Y176.3880
 X91.9167 Y175.2260
 X91.3131 Y175.1250
 X90.7507 Y175.0900
 X90.4572 Y175.1000
 X90.2051 Y175.1310
 X89.9943 Y175.1810
 X89.8247 Y175.2510
 X89.6854 Y175.3430
 X89.5653 Y175.4540
 X89.4643 Y175.5860
 X89.3822 Y175.7390
 X89.3208 Y175.9310
 X89.2769 Y176.1710
 X89.2507 Y176.4640
 X89.2418 Y176.8060
 Y178.3530
 X88.6217
 Y179.5790
 X89.2418
 Y180.3860
 X90.9285 Y181.2500
G0 Z25.0000
 X87.1746
G1 Z-1.0000
 Y179.5790
 X88.1006
 Y178.3530
 X87.1746
 Y176.7930
 X87.1779 Y176.6650
 X87.1881 Y176.5600
 X87.2049 Y176.4790
 X87.2285 Y176.4210
 X87.2775 Y176.3600
 X87.3421 Y176.3170
 X87.4221 Y176.2900
 X87.5178 Y176.2810
 X87.6201 Y176.2880
 X87.7411 Y176.3080
 X87.8807 Y176.3420
 X88.0389 Y176.3880
 X88.1626 Y175.2260
 X87.5590 Y175.1250
 X86.9968 Y175.0900
 X86.7033 Y175.1000
 X86.4511 Y175.1310
 X86.2403 Y175.1810
 X86.0707 Y175.2510
 X85.9315 Y175.3430
 X85.8115 Y175.4540
 X85.7104 Y175.5860
 X85.6288 Y175.7390
 X85.5671 Y175.9310
 X85.5231 Y176.1710
 X85.4968 Y176.4640
 X85.4879 Y176.8060
 Y178.3530
 X84.8678
 Y179.5790
 X85.4879
 Y180.3860
 X87.1746 Y181.2500
G0 Z25.0000
 X81.1721 Y178.1580
G1 Z-1.0000
 X79.5637 Y178.3280
 X79.6140 Y178.5260
 X79.6743 Y178.7030
 X79.7443 Y178.8570
 X79.8242 Y178.9890
 X80.0350 Y179.2170
 X80.3204 Y179.4110
 X80.4469 Y179.4710
 X80.5953 Y179.5240
 X80.7651 Y179.5690
 X80.9568 Y179.6080
 X81.3786 Y179.6610
 X81.8335 Y179.6790
 X82.1931 Y179.6740
 X82.5154 Y179.6570
 X82.8008 Y179.6310
 X83.0489 Y179.5920
 X83.2686 Y179.5390
 X83.4694 Y179.4620
 X83.6511 Y179.3640
 X83.8136 Y179.2400
 X83.9154 Y179.1380
 X84.0060 Y179.0150
 X84.0850 Y178.8740
 X84.1526 Y178.7110
 X84.2457 Y178.3810
 X84.2768 Y178.0630
 Y176.1240
 X84.2861 Y175.8470
 X84.3139 Y175.6360
 X84.3779 Y175.4380
 X84.4875 Y175.1890
 X82.9085
 X82.8299 Y175.3390
 X82.7842 Y175.4460
 X82.7553 Y175.5610
 X82.7264 Y175.7260
 X82.3967 Y175.4540
 X82.0692 Y175.2720
 X81.8368 Y175.1930
 X81.5863 Y175.1360
 X81.3178 Y175.1010
 X81.0313 Y175.0900
 X80.6621 Y175.1120
 X80.3400 Y175.1810
 X80.0649 Y175.2940
 X79.8368 Y175.4540
 X79.6594 Y175.6460
 X79.5328 Y175.8600
 X79.4568 Y176.0940
 X79.4314 Y176.3510
 X79.4497 Y176.5900
 X79.5049 Y176.8070
 X79.5967 Y177.0010
 X79.7250 Y177.1740
 X79.9028 Y177.3250
 X80.1425 Y177.4540
 X80.4442 Y177.5640
 X80.8081 Y177.6530
 X81.2399 Y177.7420
 X81.5886 Y177.8150
 X81.8539 Y177.8740
 X82.0360 Y177.9180
 X82.3254 Y178.0080
 X82.6311 Y178.1210
 X82.6231 Y178.2640
 X82.5990 Y178.3850
 X82.5590 Y178.4810
 X82.5031 Y178.5540
 X82.4268 Y178.6080
 X82.3264 Y178.6470
 X82.2015 Y178.6710
 X82.0526 Y178.6790
 X81.8589 Y178.6710
 X81.6908 Y178.6460
 X81.5487 Y178.6040
 X81.4324 Y178.5460
 X81.3556 Y178.4830
 X81.2865 Y178.3970
 X81.2254 Y178.2890
 X81.1721 Y178.1580
G0 Z25.0000
 X73.7718 Y181.2500
G1 Z-1.0000
 X76.8847
 X77.1310 Y181.2430
 X77.3612 Y181.2190
 X77.5754 Y181.1820
 X77.7736 Y181.1290
 X77.9558 Y181.0610
 X78.1221 Y180.9780
 X78.2721 Y180.8810
 X78.4063 Y180.7670
 X78.5254 Y180.6390
 X78.6288 Y180.4990
 X78.7160 Y180.3460
 X78.7875 Y180.1810
 X78.8431 Y180.0010
 X78.8828 Y179.8110
 X78.9067 Y179.6070
 X78.9146 Y179.3900
 X78.9060 Y179.1670
 X78.8800 Y178.9560
 X78.8368 Y178.7580
 X78.7763 Y178.5720
 X78.6983 Y178.3990
 X78.6032 Y178.2390
 X78.4906 Y178.0900
 X78.3608 Y177.9560
 X78.2142 Y177.8350
 X78.0494 Y177.7290
 X77.8664 Y177.6400
 X77.6651 Y177.5680
 X77.4457 Y177.5110
 X77.2081 Y177.4710
 X76.9521 Y177.4460
 X76.6781 Y177.4390
 X75.6528
 Y175.1890
 X73.7718
 Y181.2500
G0 Z25.0000
 X69.1169
G1 Z-1.0000
 Y179.5790
 X70.0429
 Y178.3530
 X69.1169
 Y176.7930
 X69.1203 Y176.6650
 X69.1304 Y176.5600
 X69.1471 Y176.4790
 X69.1706 Y176.4210
 X69.2196 Y176.3600
 X69.2843 Y176.3170
 X69.3644 Y176.2900
 X69.4601 Y176.2810
 X69.5624 Y176.2880
 X69.6832 Y176.3080
 X69.8226 Y176.3420
 X69.9808 Y176.3880
 X70.1051 Y175.2260
 X69.5012 Y175.1250
 X68.9392 Y175.0900
 X68.6454 Y175.1000
 X68.3933 Y175.1310
 X68.1825 Y175.1810
 X68.0131 Y175.2510
 X67.8738 Y175.3430
 X67.7535 Y175.4540
 X67.6525 Y175.5860
 X67.5707 Y175.7390
 X67.5092 Y175.9310
 X67.4653 Y176.1710
 X67.4390 Y176.4640
 X67.4303 Y176.8060
 Y178.3530
 X66.8101
 Y179.5790
 X67.4303
 Y180.3860
 X69.1169 Y181.2500
G0 Z25.0000
 X61.6133 Y176.4040
G1 Z-1.0000
 X63.2838 Y176.5630
 X63.3406 Y176.4240
 X63.4076 Y176.3070
 X63.4851 Y176.2110
 X63.5731 Y176.1360
 X63.6739 Y176.0810
 X63.7900 Y176.0400
 X63.9218 Y176.0150
 X64.0690 Y176.0080
 X64.2290 Y176.0170
 X64.3699 Y176.0440
 X64.4917 Y176.0890
 X64.5943 Y176.1530
 X64.7028 Y176.2740
 X64.7389 Y176.4210
 X64.7269 Y176.5070
 X64.6914 Y176.5830
 X64.6319 Y176.6470
 X64.5489 Y176.7030
 X64.4524 Y176.7400
 X64.2996 Y176.7810
 X64.0906 Y176.8260
 X63.8253 Y176.8760
 X63.4204 Y176.9510
 X63.0821 Y177.0220
 X62.8106 Y177.0920
 X62.6057 Y177.1570
 X62.4425 Y177.2350
 X62.2924 Y177.3330
 X62.1553 Y177.4560
 X62.0310 Y177.6000
 X61.9296 Y177.7600
 X61.8574 Y177.9320
 X61.8140 Y178.1140
 X61.7996 Y178.3070
 X61.8153 Y178.5170
 X61.8626 Y178.7110
 X61.9414 Y178.8900
 X62.0518 Y179.0540
 X62.1897 Y179.2010
 X62.3514 Y179.3290
 X62.5368 Y179.4360
 X62.7461 Y179.5220
 X62.9861 Y179.5900
 X63.2639 Y179.6400
 X63.5794 Y179.6690
 X63.9329 Y179.6790
 X64.2997 Y179.6720
 X64.6149 Y179.6490
 X64.8785 Y179.6110
 X65.0903 Y179.5600
 X65.2704 Y179.4920
 X65.4346 Y179.4070
 X65.5825 Y179.3060
 X65.7144 Y179.1880
 X65.8350 Y179.0500
 X65.9449 Y178.8900
 X66.0439 Y178.7080
 X66.1321 Y178.5040
 X64.5364 Y178.3470
 X64.4536 Y178.5310
 X64.3297 Y178.6580
 X64.1104 Y178.7570
 X63.8500 Y178.7900
 X63.7169 Y178.7830
 X63.6031 Y178.7640
 X63.5083 Y178.7320
 X63.4326 Y178.6880
 X63.3362 Y178.5760
 X63.3042 Y178.4430
 X63.3146 Y178.3670
 X63.3457 Y178.3010
 X63.3974 Y178.2460
 X63.4697 Y178.1990
 X63.5767 Y178.1580
 X63.7322 Y178.1210
 X63.9363 Y178.0850
 X64.1890 Y178.0500
 X64.5817 Y177.9990
 X64.9207 Y177.9360
 X65.2060 Y177.8650
 X65.4375 Y177.7860
 X65.6300 Y177.6920
 X65.7982 Y177.5810
 X65.9421 Y177.4500
 X66.0618 Y177.3010
 X66.1576 Y177.1420
 X66.2261 Y176.9720
 X66.2672 Y176.7960
 X66.2810 Y176.6110
 X66.2664 Y176.4220
 X66.2229 Y176.2360
 X66.1507 Y176.0530
 X66.0496 Y175.8720
 X65.9189 Y175.7010
 X65.7547 Y175.5490
 X65.5571 Y175.4140
 X65.3260 Y175.2970
 X65.0575 Y175.2040
 X64.7440 Y175.1390
 X64.3857 Y175.0990
 X63.9822 Y175.0860
 X63.6924 Y175.0920
 X63.4239 Y175.1070
 X63.1772 Y175.1350
 X62.9519 Y175.1720
 X62.7483 Y175.2190
 X62.5663 Y175.2790
 X62.4057 Y175.3490
 X62.2667 Y175.4290
 X62.0351 Y175.6190
 X61.8492 Y175.8440
 X61.7085 Y176.1070
 X61.6133 Y176.4040
 X61.1297 Y176.9670
 X57.7564
 X57.7872 Y176.7780
 X57.8339 Y176.6140
 X57.8967 Y176.4750
 X57.9754 Y176.3640
 X58.1067 Y176.2390
 X58.2565 Y176.1500
 X58.4250 Y176.0960
 X58.6122 Y176.0780
 X58.8539 Y176.1100
 X59.0832 Y176.2030
 X59.2250 Y176.3110
 X59.3767 Y176.4790
 X61.0347 Y176.3260
 X60.8347 Y176.0190
 X60.6151 Y175.7580
 X60.3758 Y175.5430
 X60.1168 Y175.3750
 X59.8190 Y175.2500
 X59.4628 Y175.1610
 X59.0481 Y175.1080
 X58.5749 Y175.0900
 X58.1619 Y175.1060
 X57.7957 Y175.1510
 X57.4757 Y175.2280
 X57.2022 Y175.3350
 X56.9628 Y175.4760
 X56.7444 Y175.6540
 X56.5474 Y175.8670
 X56.3714 Y176.1150
 X56.2285 Y176.3960
 X56.1265 Y176.7000
 X56.0651 Y177.0260
 X56.0447 Y177.3760
 X56.0550 Y177.6280
 X56.0858 Y177.8670
 X56.1372 Y178.0930
 X56.2090 Y178.3080
 X56.3015 Y178.5100
 X56.4144 Y178.7000
 X56.5479 Y178.8780
 X56.7019 Y179.0430
 X56.8751 Y179.1920
 X57.0640 Y179.3210
 X57.2685 Y179.4310
 X57.4885 Y179.5190
 X57.7242 Y179.5900
 X57.9756 Y179.6390
 X58.2425 Y179.6690
 X58.5251 Y179.6790
 X58.9717 Y179.6610
 X59.3686 Y179.6080
 X59.7158 Y179.5180
 X60.0135 Y179.3940
 X60.2701 Y179.2350
 X60.4942 Y179.0440
 X60.6857 Y178.8220
 X60.8447 Y178.5670
 X60.9694 Y178.2760
 X61.0585 Y177.9440
 X61.1118 Y177.5710
 X61.1297 Y177.1570
 Y176.9670
G0 Z25.0000
 X50.3357 Y181.2500
G1 Z-1.0000
 X56.0282
 Y179.7530
 X54.1182
 Y175.1890
 X52.2457
 Y179.7530
 X50.3357
 Y181.2500
G0 Z25.0000
 X73.0857 Y202.6210
G1 Z-1.0000
 X76.4261 Y202.9350
 X76.5397 Y202.6580
 X76.6740 Y202.4240
 X76.8290 Y202.2320
 X77.0047 Y202.0830
 X77.2063 Y201.9710
 X77.4387 Y201.8920
 X77.7024 Y201.8430
 X77.9971 Y201.8260
 X78.3168 Y201.8440
 X78.5985 Y201.9000
 X78.8418 Y201.9900
 X79.0469 Y202.1170
 X79.1736 Y202.2310
 X79.2640 Y202.3580
 X79.3185 Y202.4990
 X79.3365 Y202.6540
 X79.3128 Y202.8250
 X79.2414 Y202.9760
 X79.1224 Y203.1070
 X78.9558 Y203.2150
 X78.8736 Y203.2530
 X78.7632 Y203.2900
 X78.6247 Y203.3310
 X78.4579 Y203.3740
 X78.2631 Y203.4180
 X78.0399 Y203.4640
 X77.7886 Y203.5130
 X77.5092 Y203.5640
 X77.0875 Y203.6390
 X76.6993 Y203.7140
 X76.3444 Y203.7860
 X76.0229 Y203.8570
 X75.7347 Y203.9260
 X75.4799 Y203.9940
 X75.2582 Y204.0610
 X75.0700 Y204.1250
 X74.7440 Y204.2790
 X74.4438 Y204.4790
 X74.1693 Y204.7220
 X73.9207 Y205.0100
 X73.7181 Y205.3310
 X73.5735 Y205.6740
 X73.4867 Y206.0380
 X73.4578 Y206.4240
 X73.4893 Y206.8430
 X73.5839 Y207.2320
 X73.7414 Y207.5920
 X73.9619 Y207.9210
 X74.2379 Y208.2150
 X74.5615 Y208.4680
 X74.9325 Y208.6820
 X75.3513 Y208.8560
 X75.5818 Y208.9290
 X75.8313 Y208.9920
 X76.0996 Y209.0460
 X76.3868 Y209.0900
 X76.6928 Y209.1250
 X77.0176 Y209.1500
 X77.3614 Y209.1640
 X77.7240 Y209.1690
 X78.1039 Y209.1650
 X78.4578 Y209.1540
 X78.7860 Y209.1350
 X79.0883 Y209.1100
 X79.3649 Y209.0750
 X79.6156 Y209.0350
 X79.8403 Y208.9860
 X80.0393 Y208.9290
 X80.3994 Y208.7930
 X80.7275 Y208.6240
 X81.0236 Y208.4210
 X81.2878 Y208.1850
 X81.5290 Y207.9110
 X81.7486 Y207.5920
 X81.9465 Y207.2290
 X82.1228 Y206.8210
 X78.9312 Y206.5070
 X78.8589 Y206.7040
 X78.7658 Y206.8720
 X78.6521 Y207.0140
 X78.5178 Y207.1260
 X78.3090 Y207.2430
 X78.0796 Y207.3250
 X77.8296 Y207.3750
 X77.5589 Y207.3920
 X77.2926 Y207.3780
 X77.0646 Y207.3400
 X76.8749 Y207.2750
 X76.7235 Y207.1850
 X76.6114 Y207.0790
 X76.5314 Y206.9640
 X76.4833 Y206.8360
 X76.4674 Y206.6970
 X76.4881 Y206.5460
 X76.5500 Y206.4140
 X76.6533 Y206.3010
 X76.7979 Y206.2100
 X77.0119 Y206.1290
 X77.3231 Y206.0510
 X77.7312 Y205.9790
 X78.2367 Y205.9110
 X78.6428 Y205.8610
 X79.0221 Y205.8070
 X79.3746 Y205.7490
 X79.7001 Y205.6850
 X79.9989 Y205.6150
 X80.2708 Y205.5430
 X80.5158 Y205.4650
 X80.7339 Y205.3820
 X81.1187 Y205.1940
 X81.4551 Y204.9710
 X81.7431 Y204.7110
 X81.9824 Y204.4150
 X82.1740 Y204.0930
 X82.3110 Y203.7560
 X82.3931 Y203.4030
 X82.4206 Y203.0350
 X82.3915 Y202.6570
 X82.3046 Y202.2830
 X82.1599 Y201.9170
 X81.9574 Y201.5540
 X81.6964 Y201.2120
 X81.3683 Y200.9070
 X80.9731 Y200.6380
 X80.5106 Y200.4060
 X80.2532 Y200.3060
 X79.9735 Y200.2210
 X79.6714 Y200.1470
 X79.3467 Y200.0890
 X78.9996 Y200.0430
 X78.6300 Y200.0100
 X78.2379 Y199.9900
 X77.8235 Y199.9830
 X77.2435 Y199.9940
 X76.7067 Y200.0260
 X76.2131 Y200.0790
 X75.7625 Y200.1540
 X75.3551 Y200.2510
 X74.9908 Y200.3690
 X74.6699 Y200.5080
 X74.3921 Y200.6690
 X74.1490 Y200.8500
 X73.9290 Y201.0490
 X73.7315 Y201.2650
 X73.5569 Y201.5000
 X73.4050 Y201.7530
 X73.2758 Y202.0250
 X73.1694 Y202.3140
 X73.0857 Y202.6210
G0 Z25.0000
 X88.0925 Y212.3110
G1 Z-1.0000
 Y208.9710
 X89.9446
 Y206.5150
 X88.0925
 Y203.3970
 X88.0992 Y203.1400
 X88.1193 Y202.9310
 X88.1529 Y202.7680
 X88.2001 Y202.6540
 X88.2982 Y202.5310
 X88.4274 Y202.4430
 X88.5875 Y202.3900
 X88.7786 Y202.3720
 X88.9832 Y202.3860
 X89.2251 Y202.4260
 X89.5042 Y202.4930
 X89.8204 Y202.5870
 X90.0685 Y200.2640
 X89.4546 Y200.1440
 X88.8614 Y200.0600
 X88.2888 Y200.0080
 X87.7368 Y199.9920
 X87.4331 Y199.9970
 X87.1499 Y200.0110
 X86.8874 Y200.0360
 X86.6454 Y200.0720
 X86.4243 Y200.1170
 X86.2237 Y200.1720
 X86.0439 Y200.2390
 X85.8849 Y200.3140
 X85.6062 Y200.4960
 X85.3660 Y200.7190
 X85.1639 Y200.9830
 X85.0000 Y201.2890
 X84.9342 Y201.4680
 X84.8771 Y201.6710
 X84.8287 Y201.9000
 X84.7892 Y202.1530
 X84.7585 Y202.4330
 X84.7364 Y202.7370
 X84.7232 Y203.0680
 X84.7189 Y203.4220
 Y206.5150
 X83.4789
 Y208.9710
 X84.7189
 Y210.5830
 X88.0925 Y212.3110
G0 Z25.0000
 X97.4026
G1 Z-1.0000
 X103.6280
 X104.1210 Y212.2960
 X104.5810 Y212.2510
 X105.0100 Y212.1750
 X105.4060 Y212.0690
 X105.7710 Y211.9330
 X106.1030 Y211.7670
 X106.4030 Y211.5710
 X106.6710 Y211.3430
 X106.9090 Y211.0890
 X107.1160 Y210.8080
 X107.2910 Y210.5030
 X107.4340 Y210.1720
 X107.5450 Y209.8150
 X107.6250 Y209.4320
 X107.6720 Y209.0240
 X107.6880 Y208.5900
 X107.6710 Y208.1440
 X107.6190 Y207.7220
 X107.5320 Y207.3260
 X107.4110 Y206.9560
 X107.2550 Y206.6100
 X107.0650 Y206.2890
 X106.8400 Y205.9920
 X106.5800 Y205.7210
 X106.2870 Y205.4790
 X105.9570 Y205.2690
 X105.5920 Y205.0920
 X105.1890 Y204.9460
 X104.7500 Y204.8330
 X104.2750 Y204.7530
 X103.7630 Y204.7040
 X103.2150 Y204.6880
 X101.1650
 Y200.1900
 X97.4026
 Y212.3110
G0 Z25.0000
 X112.2030 Y206.1260
G1 Z-1.0000
 X108.9860 Y206.4650
 X109.0870 Y206.8640
 X109.2070 Y207.2180
 X109.3470 Y207.5260
 X109.5070 Y207.7890
 X109.6990 Y208.0240
 X109.9290 Y208.2430
 X110.1960 Y208.4460
 X110.4990 Y208.6320
 X110.7530 Y208.7530
 X111.0490 Y208.8580
 X111.3890 Y208.9510
 X111.7730 Y209.0290
 X112.1860 Y209.0900
 X112.6160 Y209.1330
 X113.0630 Y209.1600
 X113.5260 Y209.1690
 X114.2450 Y209.1580
 X114.8900 Y209.1250
 X115.4600 Y209.0710
 X115.9560 Y208.9960
 X116.3960 Y208.8900
 X116.7980 Y208.7370
 X117.1610 Y208.5390
 X117.4860 Y208.2930
 X117.6900 Y208.0870
 X117.8700 Y207.8420
 X118.0280 Y207.5580
 X118.1640 Y207.2350
 X118.2730 Y206.8990
 X118.3500 Y206.5710
 X118.3970 Y206.2500
 X118.4120 Y205.9360
 Y202.0580
 X118.4170 Y201.7650
 X118.4310 Y201.5040
 X118.4540 Y201.2760
 X118.4860 Y201.0820
 X118.5390 Y200.8970
 X118.6150 Y200.6860
 X118.7130 Y200.4500
 X118.8340 Y200.1900
 X115.6750
 X115.5880 Y200.3490
 X115.5180 Y200.4870
 X115.4640 Y200.6060
 X115.4270 Y200.7030
 X115.3690 Y200.9330
 X115.3110 Y201.2650
 X114.9810 Y200.9690
 X114.6520 Y200.7190
 X114.3240 Y200.5140
 X113.9970 Y200.3560
 X113.5320 Y200.1960
 X113.0320 Y200.0820
 X112.4950 Y200.0140
 X111.9220 Y199.9920
 X111.5410 Y200.0030
 X111.1830 Y200.0380
 X110.8490 Y200.0940
 X110.5390 Y200.1740
 X110.2520 Y200.2750
 X109.9880 Y200.4000
 X109.7480 Y200.5490
 X109.5320 Y200.7190
 X109.3420 Y200.9060
 X109.1770 Y201.1040
 X109.0380 Y201.3130
 X108.9240 Y201.5320
 X108.8360 Y201.7610
 X108.7730 Y202.0010
 X108.7350 Y202.2510
 X108.7220 Y202.5130
 X108.7310 Y202.7580
 X108.7580 Y202.9920
 X108.8040 Y203.2140
 X108.8690 Y203.4250
 X108.9510 Y203.6250
 X109.0520 Y203.8140
 X109.1710 Y203.9920
 X109.3090 Y204.1580
 X109.4710 Y204.3140
 X109.6640 Y204.4600
 X109.8890 Y204.5960
 X110.1440 Y204.7210
 X110.4300 Y204.8360
 X110.7470 Y204.9400
 X111.0960 Y205.0330
 X111.4750 Y205.1180
 X111.9270 Y205.2100
 X112.3380 Y205.2930
 X112.7080 Y205.3710
 X113.0360 Y205.4400
 X113.3220 Y205.5030
 X113.5660 Y205.5580
 X113.7690 Y205.6060
 X113.9310 Y205.6470
 X114.5100 Y205.8260
 X115.1210 Y206.0510
 X115.1050 Y206.3390
 X115.0570 Y206.5790
 X114.9770 Y206.7720
 X114.8650 Y206.9190
 X114.7120 Y207.0290
 X114.5120 Y207.1060
 X114.2620 Y207.1530
 X113.9640 Y207.1680
 X113.5760 Y207.1510
 X113.2400 Y207.1010
 X112.9560 Y207.0190
 X112.7230 Y206.9030
 X112.5700 Y206.7780
 X112.4320 Y206.6060
 X112.3100 Y206.3890
 X112.2030 Y206.1260
G0 Z25.0000
 X124.2080 Y212.3110
G1 Z-1.0000
 Y208.9710
 X126.0600
 Y206.5150
 X124.2080
 Y203.3970
 X124.2150 Y203.1400
 X124.2350 Y202.9310
 X124.2690 Y202.7680
 X124.3160 Y202.6540
 X124.4140 Y202.5310
 X124.5430 Y202.4430
 X124.7030 Y202.3900
 X124.8940 Y202.3720
 X125.0990 Y202.3860
 X125.3410 Y202.4260
 X125.6200 Y202.4930
 X125.9360 Y202.5870
 X126.1840 Y200.2640
 X125.5700 Y200.1440
 X124.9770 Y200.0600
 X124.4040 Y200.0080
 X123.8520 Y199.9920
 X123.5490 Y199.9970
 X123.2650 Y200.0110
 X123.0030 Y200.0360
 X122.7610 Y200.0720
 X122.5400 Y200.1170
 X122.3390 Y200.1720
 X122.1600 Y200.2390
 X122.0000 Y200.3140
 X121.7220 Y200.4960
 X121.4820 Y200.7190
 X121.2790 Y200.9830
 X121.1160 Y201.2890
 X121.0500 Y201.4680
 X120.9930 Y201.6710
 X120.9440 Y201.9000
 X120.9050 Y202.1530
 X120.8740 Y202.4330
 X120.8520 Y202.7370
 X120.8390 Y203.0680
 X120.8350 Y203.4220
 Y206.5150
 X119.5940
 Y208.9710
 X120.8350
 Y210.5830
 X124.2080 Y212.3110
G0 Z25.0000
 X131.7160
G1 Z-1.0000
 Y208.9710
 X133.5680
 Y206.5150
 X131.7160
 Y203.3970
 X131.7220 Y203.1400
 X131.7430 Y202.9310
 X131.7760 Y202.7680
 X131.8230 Y202.6540
 X131.9210 Y202.5310
 X132.0500 Y202.4430
 X132.2110 Y202.3900
 X132.4020 Y202.3720
 X132.6070 Y202.3860
 X132.8480 Y202.4260
 X133.1270 Y202.4930
 X133.4440 Y202.5870
 X133.6920 Y200.2640
 X133.0780 Y200.1440
 X132.4840 Y200.0600
 X131.9120 Y200.0080
 X131.3600 Y199.9920
 X131.0560 Y199.9970
 X130.7730 Y200.0110
 X130.5100 Y200.0360
 X130.2690 Y200.0720
 X130.0470 Y200.1170
 X129.8470 Y200.1720
 X129.6670 Y200.2390
 X129.5080 Y200.3140
 X129.2290 Y200.4960
 X128.9890 Y200.7190
 X128.7870 Y200.9830
 X128.6230 Y201.2890
 X128.5570 Y201.4680
 X128.5000 Y201.6710
 X128.4520 Y201.9000
 X128.4130 Y202.1530
 X128.3820 Y202.4330
 X128.3600 Y202.7370
 X128.3470 Y203.0680
 X128.3420 Y203.4220
 Y206.5150
 X127.1020
 Y208.9710
 X128.3420
 Y210.5830
 X131.7160 Y212.3110
G0 Z25.0000
 X146.5070 Y208.9710
G1 Z-1.0000
 X149.6580
 Y207.5320
 X149.8860 Y207.9620
 X150.1180 Y208.3190
 X150.3540 Y208.6030
 X150.5920 Y208.8140
 X150.8500 Y208.9690
 X151.1360 Y209.0810
 X151.4490 Y209.1470
 X151.7900 Y209.1690
 X152.1720 Y209.1400
 X152.5710 Y209.0530
 X152.9860 Y208.9080
 X153.4190 Y208.7060
 X152.3780 Y206.3080
 X152.0960 Y206.4170
 X151.8440 Y206.4940
 X151.6250 Y206.5400
 X151.4360 Y206.5570
 X151.1240 Y206.5220
 X150.8490 Y206.4190
 X150.6110 Y206.2490
 X150.4100 Y206.0110
 X150.2880 Y205.7970
 X150.1820 Y205.5430
 X150.0930 Y205.2460
 X150.0190 Y204.9070
 X149.9620 Y204.5260
 X149.9220 Y204.1040
 X149.8970 Y203.6390
 X149.8890 Y203.1330
 Y200.1900
 X146.5070
 Y208.9710
G0 Z25.0000
 X144.9110 Y203.7440
G1 Z-1.0000
 X138.1650
 X138.2260 Y203.3650
 X138.3200 Y203.0380
 X138.4450 Y202.7630
 X138.6030 Y202.5380
 X138.8660 Y202.2890
 X139.1650 Y202.1100
 X139.5030 Y202.0030
 X139.8760 Y201.9680
 X140.1210 Y201.9830
 X140.3600 Y202.0290
 X140.5930 Y202.1070
 X140.8190 Y202.2150
 X140.9580 Y202.3080
 X141.1030 Y202.4320
 X141.2510 Y202.5860
 X141.4060 Y202.7690
 X144.7210 Y202.4640
 X144.5260 Y202.1440
 X144.3210 Y201.8490
 X144.1070 Y201.5760
 X143.8820 Y201.3260
 X143.6470 Y201.1000
 X143.4040 Y200.8970
 X143.1500 Y200.7180
 X142.8860 Y200.5630
 X142.6030 Y200.4280
 X142.2900 Y200.3130
 X141.9490 Y200.2140
 X141.5780 Y200.1350
 X141.1780 Y200.0720
 X140.7490 Y200.0280
 X140.2900 Y200.0000
 X139.8010 Y199.9920
 X139.3780 Y199.9990
 X138.9760 Y200.0220
 X138.5980 Y200.0600
 X138.2430 Y200.1140
 X137.9120 Y200.1820
 X137.6040 Y200.2650
 X137.3190 Y200.3650
 X137.0570 Y200.4790
 X136.8120 Y200.6120
 X136.5780 Y200.7630
 X136.3540 Y200.9320
 X136.1410 Y201.1180
 X135.9390 Y201.3220
 X135.7470 Y201.5440
 X135.5660 Y201.7850
 X135.3950 Y202.0420
 X135.2420 Y202.3170
 X135.1090 Y202.6030
 X134.9970 Y202.9000
 X134.9050 Y203.2100
 X134.8330 Y203.5310
 X134.7820 Y203.8640
 X134.7520 Y204.2080
 X134.7420 Y204.5640
 X134.7620 Y205.0670
 X134.8240 Y205.5440
 X134.9270 Y205.9970
 X135.0700 Y206.4260
 X135.2550 Y206.8310
 X135.4810 Y207.2100
 X135.7480 Y207.5650
 X136.0570 Y207.8960
 X136.4030 Y208.1940
 X136.7810 Y208.4530
 X137.1890 Y208.6720
 X137.6290 Y208.8500
 X138.1010 Y208.9900
 X138.6040 Y209.0890
 X139.1380 Y209.1490
 X139.7030 Y209.1690
 X140.1610 Y209.1600
 X140.5960 Y209.1330
 X141.0060 Y209.0890
 X141.3890 Y209.0260
 X141.7490 Y208.9460
 X142.0830 Y208.8490
 X142.3940 Y208.7320
 X142.6790 Y208.5990
 X142.9440 Y208.4470
 X143.1930 Y208.2820
 X143.4250 Y208.0990
 X143.6400 Y207.9000
 X143.8400 Y207.6850
 X144.0240 Y207.4540
 X144.1900 Y207.2080
 X144.3420 Y206.9440
 X144.4750 Y206.6640
 X144.5900 Y206.3620
 X144.6890 Y206.0400
 X144.7690 Y205.6990
 X144.8320 Y205.3360
 X144.8760 Y204.9530
 X144.9030 Y204.5500
 X144.9110 Y204.1250
 Y203.7440
G0 Z25.0000
 X154.8420 Y208.9710
G1 Z-1.0000
 X157.9750
 Y207.5400
 X158.3280 Y207.9470
 X158.6820 Y208.2900
 X159.0390 Y208.5710
 X159.3970 Y208.7890
 X159.7760 Y208.9560
 X160.1960 Y209.0740
 X160.6540 Y209.1460
 X161.1500 Y209.1690
 X161.4900 Y209.1560
 X161.8110 Y209.1170
 X162.1120 Y209.0510
 X162.3940 Y208.9600
 X162.6580 Y208.8430
 X162.9030 Y208.7000
 X163.1280 Y208.5290
 X163.3330 Y208.3330
 X163.5190 Y208.1120
 X163.6810 Y207.8640
 X163.8170 Y207.5860
 X163.9290 Y207.2810
 X164.0150 Y206.9460
 X164.0780 Y206.5820
 X164.1150 Y206.1900
 X164.1260 Y205.7710
 Y200.1900
 X160.7460
 Y205.0180
 X160.7260 Y205.4010
 X160.6690 Y205.7240
 X160.5740 Y205.9850
 X160.4390 Y206.1850
 X160.2710 Y206.3360
 X160.0710 Y206.4440
 X159.8420 Y206.5100
 X159.5790 Y206.5320
 X159.2880 Y206.5030
 X159.0250 Y206.4150
 X158.7920 Y206.2710
 X158.5870 Y206.0680
 X158.4990 Y205.9420
 X158.4210 Y205.7900
 X158.3560 Y205.6180
 X158.3030 Y205.4210
 X158.2610 Y205.2030
 X158.2310 Y204.9600
 X158.2120 Y204.6940
 X158.2070 Y204.4070
 Y200.1900
 X154.8420
 Y208.9710
G0 Z25.0000
 X128.2880 Y181.3540
G1 Z-1.0000
 Y175.1890
 X126.5850
 Y179.2280
 X126.1780 Y178.9440
 X125.7830 Y178.7190
 X125.3490 Y178.5310
 X124.8160 Y178.3470
 Y179.7290
 X125.2220 Y179.8740
 X125.5800 Y180.0330
 X125.8890 Y180.2070
 X126.1510 Y180.3940
 X126.3760 Y180.6000
 X126.5750 Y180.8280
 X126.7480 Y181.0790
 X126.8950 Y181.3540
 X128.2880
G0 Z25.0000
 X72.1183 Y203.7440
G1 Z-1.0000
 X65.3715
 X65.4331 Y203.3650
 X65.5265 Y203.0380
 X65.6521 Y202.7630
 X65.8096 Y202.5380
 X66.0721 Y202.2890
 X66.3718 Y202.1100
 X66.7087 Y202.0030
 X67.0828 Y201.9680
 X67.3278 Y201.9830
 X67.5665 Y202.0290
 X67.7990 Y202.1070
 X68.0254 Y202.2150
 X68.1644 Y202.3080
 X68.3086 Y202.4320
 X68.4579 Y202.5860
 X68.6125 Y202.7690
 X71.9282 Y202.4640
 X71.7331 Y202.1440
 X71.5281 Y201.8490
 X71.3135 Y201.5760
 X71.0889 Y201.3260
 X70.8546 Y201.1000
 X70.6104 Y200.8970
 X70.3564 Y200.7180
 X70.0928 Y200.5630
 X69.8093 Y200.4280
 X69.4967 Y200.3130
 X69.1550 Y200.2140
 X68.7840 Y200.1350
 X68.3839 Y200.0720
 X67.9546 Y200.0280
 X67.4960 Y200.0000
 X67.0083 Y199.9920
 X66.5839 Y199.9990
 X66.1825 Y200.0220
 X65.8046 Y200.0600
 X65.4499 Y200.1140
 X65.1183 Y200.1820
 X64.8101 Y200.2650
 X64.5251 Y200.3650
 X64.2633 Y200.4790
 X64.0185 Y200.6120
 X63.7843 Y200.7630
 X63.5607 Y200.9320
 X63.3476 Y201.1180
 X63.1451 Y201.3220
 X62.9533 Y201.5440
 X62.7721 Y201.7850
 X62.6014 Y202.0420
 X62.4485 Y202.3170
 X62.3157 Y202.6030
 X62.2035 Y202.9000
 X62.1117 Y203.2100
 X62.0403 Y203.5310
 X61.9893 Y203.8640
 X61.9587 Y204.2080
 X61.9485 Y204.5640
 X61.9690 Y205.0670
 X62.0307 Y205.5440
 X62.1333 Y205.9970
 X62.2771 Y206.4260
 X62.4619 Y206.8310
 X62.6878 Y207.2100
 X62.9549 Y207.5650
 X63.2629 Y207.8960
 X63.6093 Y208.1940
 X63.9868 Y208.4530
 X64.3957 Y208.6720
 X64.8358 Y208.8500
 X65.3072 Y208.9900
 X65.8100 Y209.0890
 X66.3440 Y209.1490
 X66.9092 Y209.1690
 X67.3682 Y209.1600
 X67.8022 Y209.1330
 X68.2115 Y209.0890
 X68.5960 Y209.0260
 X68.9557 Y208.9460
 X69.2906 Y208.8490
 X69.6007 Y208.7320
 X69.8860 Y208.5990
 X70.1506 Y208.4470
 X70.3990 Y208.2820
 X70.6311 Y208.0990
 X70.8469 Y207.9000
 X71.0465 Y207.6850
 X71.2297 Y207.4540
 X71.3968 Y207.2080
 X71.5476 Y206.9440
 X71.6814 Y206.6640
 X71.7974 Y206.3620
 X71.8954 Y206.0400
 X71.9757 Y205.6990
 X72.0382 Y205.3360
 X72.0826 Y204.9530
 X72.1094 Y204.5500
 X72.1183 Y204.1250
 Y203.7440
G0 Z25.0000
 X50.5297 Y212.3110
G1 Z-1.0000
 X61.9153
 Y209.3180
 X58.0954
 Y200.1900
 X54.3497
 Y209.3180
 X50.5297
 Y212.3110
G0 Z25.0000
 X75.1417 Y200.3000
G1 Z-1.0000
 X75.1335 Y199.6510
 X75.1088 Y199.0080
 X75.0681 Y198.3680
 X75.0113 Y197.7330
 X74.9387 Y197.1010
 X74.8508 Y196.4760
 X74.7474 Y195.8560
 X74.6288 Y195.2390
 X74.4953 Y194.6290
 X74.3469 Y194.0250
 X74.1840 Y193.4250
 X74.0068 Y192.8330
 X73.8154 Y192.2460
 X73.6100 Y191.6670
 X73.3908 Y191.0930
 X73.1581 Y190.5260
 X72.9118 Y189.9670
 X72.6525 Y189.4140
 X72.3803 Y188.8680
 X72.0950 Y188.3310
 X71.7974 Y187.8010
 X71.4874 Y187.2790
 X71.1650 Y186.7650
 X70.8307 Y186.2600
 X70.4846 Y185.7640
 X70.1269 Y185.2760
 X69.7579 Y184.7970
 X69.3776 Y184.3280
 X68.9864 Y183.8670
 X68.5843 Y183.4170
 X68.1715 Y182.9750
 X67.7485 Y182.5440
 X67.3151 Y182.1240
 X66.8718 Y181.7120
 X66.4187 Y181.3130
 X65.9560 Y180.9240
 X65.4838 Y180.5440
 X65.0024 Y180.1780
 X64.5119 Y179.8220
 X64.0128 Y179.4780
 X63.5050 Y179.1460
 X62.9886 Y178.8250
 X62.4642 Y178.5170
 X61.9315 Y178.2190
 X61.3912 Y177.9360
 X60.8432 Y177.6650
 X60.2878 Y177.4070
 X59.7251 Y177.1630
 X59.1554 Y176.9310
 X58.5789 Y176.7120
 X57.9957 Y176.5080
 X57.4060 Y176.3180
 X56.8101 Y176.1420
 X56.2082 Y175.9810
 X55.6004 Y175.8320
 X54.9871 Y175.7000
 X54.3682 Y175.5820
 X53.7440 Y175.4790
 X53.1149 Y175.3920
 X52.4808 Y175.3190
 X51.8421 Y175.2630
 X51.1989 Y175.2220
 X50.5515 Y175.1970
 X49.9000 Y175.1890
 X49.2486 Y175.1970
 X48.6013 Y175.2220
 X47.9581 Y175.2630
 X47.3193 Y175.3190
 X46.6853 Y175.3920
 X46.0561 Y175.4790
 X45.4321 Y175.5820
 X44.8132 Y175.7000
 X44.1997 Y175.8320
 X43.5919 Y175.9810
 X42.9900 Y176.1420
 X42.3942 Y176.3180
 X41.8046 Y176.5080
 X41.2214 Y176.7120
 X40.6449 Y176.9310
 X40.0751 Y177.1630
 X39.5124 Y177.4070
 X38.9571 Y177.6650
 X38.4090 Y177.9360
 X37.8686 Y178.2190
 X37.3361 Y178.5170
 X36.8115 Y178.8250
 X36.2953 Y179.1460
 X35.7875 Y179.4780
 X35.2882 Y179.8220
 X34.7979 Y180.1780
 X34.3165 Y180.5440
 X33.8443 Y180.9240
 X33.3815 Y181.3130
 X32.9283 Y181.7120
 X32.4851 Y182.1240
 X32.0518 Y182.5440
 X31.6286 Y182.9750
 X31.2160 Y183.4170
 X30.8139 Y183.8670
 X30.4226 Y184.3280
 X30.0424 Y184.7970
 X29.6732 Y185.2760
 X29.3156 Y185.7640
 X28.9694 Y186.2600
 X28.6351 Y186.7650
 X28.3129 Y187.2790
 X28.0028 Y187.8010
 X27.7051 Y188.3310
 X27.4200 Y188.8680
 X27.1476 Y189.4140
 X26.8883 Y189.9670
 X26.6421 Y190.5260
 X26.4093 Y191.0930
 X26.1901 Y191.6670
 X25.9847 Y192.2460
 X25.7933 Y192.8330
 X25.6161 Y193.4250
 X25.4532 Y194.0250
 X25.3049 Y194.6290
 X25.1712 Y195.2390
 X25.0528 Y195.8560
 X24.9493 Y196.4760
 X24.8613 Y197.1010
 X24.7888 Y197.7330
 X24.7321 Y198.3680
 X24.6913 Y199.0080
 X24.6667 Y199.6510
 X24.6585 Y200.3000
 X24.6667 Y200.9490
 X24.6913 Y201.5920
 X24.7321 Y202.2320
 X24.7888 Y202.8680
 X24.8613 Y203.4990
 X24.9493 Y204.1240
 X25.0528 Y204.7440
 X25.1712 Y205.3610
 X25.3049 Y205.9710
 X25.4532 Y206.5750
 X25.6161 Y207.1740
 X25.7933 Y207.7670
 X25.9847 Y208.3530
 X26.1901 Y208.9330
 X26.4093 Y209.5070
 X26.6421 Y210.0740
 X26.8883 Y210.6330
 X27.1476 Y211.1860
 X27.4200 Y211.7310
 X27.7051 Y212.2680
 X28.0028 Y212.7990
 X28.3129 Y213.3190
 X28.6351 Y213.8330
 X28.9694 Y214.3390
 X29.3156 Y214.8350
 X29.6732 Y215.3240
 X30.0424 Y215.8010
 X30.4226 Y216.2720
 X30.8139 Y216.7320
 X31.2160 Y217.1830
 X31.6286 Y217.6240
 X32.0518 Y218.0540
 X32.4851 Y218.4750
 X32.9283 Y218.8860
 X33.3815 Y219.2860
 X33.8443 Y219.6750
 X34.3165 Y220.0540
 X34.7979 Y220.4210
 X35.2882 Y220.7760
 X35.7875 Y221.1210
 X36.2953 Y221.4530
 X36.8115 Y221.7740
 X37.3361 Y222.0820
 X37.8686 Y222.3790
 X38.4090 Y222.6630
 X38.9571 Y222.9330
 X39.5124 Y223.1920
 X40.0751 Y223.4360
 X40.6449 Y223.6680
 X41.2214 Y223.8860
 X41.8046 Y224.0900
 X42.3942 Y224.2810
 X42.9900 Y224.4570
 X43.5919 Y224.6180
 X44.1997 Y224.7670
 X44.8132 Y224.8990
 X45.4321 Y225.0170
 X46.0561 Y225.1190
 X46.6853 Y225.2070
 X47.3193 Y225.2790
 X47.9581 Y225.3360
 X48.6013 Y225.3760
 X49.2486 Y225.4010
 X49.9000 Y225.4100
 X50.5515 Y225.4010
 X51.1989 Y225.3760
 X51.8421 Y225.3360
 X52.4808 Y225.2790
 X53.1149 Y225.2070
 X53.7440 Y225.1190
 X54.3682 Y225.0170
 X54.9871 Y224.8990
 X55.6004 Y224.7670
 X56.2082 Y224.6180
 X56.8101 Y224.4570
 X57.4060 Y224.2810
 X57.9957 Y224.0900
 X58.5789 Y223.8860
 X59.1554 Y223.6680
 X59.7251 Y223.4360
 X60.2878 Y223.1920
 X60.8432 Y222.9330
 X61.3912 Y222.6630
 X61.9315 Y222.3790
 X62.4642 Y222.0820
 X62.9886 Y221.7740
 X63.5050 Y221.4530
 X64.0128 Y221.1210
 X64.5119 Y220.7760
 X65.0024 Y220.4210
 X65.4838 Y220.0540
 X65.9560 Y219.6750
 X66.4187 Y219.2860
 X66.8718 Y218.8860
 X67.3151 Y218.4750
 X67.7485 Y218.0540
 X68.1715 Y217.6240
 X68.5843 Y217.1830
 X68.9864 Y216.7320
 X69.3776 Y216.2720
 X69.7579 Y215.8010
 X70.1269 Y215.3240
 X70.4846 Y214.8350
 X70.8307 Y214.3390
 X71.1650 Y213.8330
 X71.4874 Y213.3190
 X71.7974 Y212.7990
 X72.0950 Y212.2680
 X72.3803 Y211.7310
 X72.6525 Y211.1860
 X72.9118 Y210.6330
 X73.1581 Y210.0740
 X73.3908 Y209.5070
 X73.6100 Y208.9330
 X73.8154 Y208.3530
 X74.0068 Y207.7670
 X74.1840 Y207.1740
 X74.3469 Y206.5750
 X74.4953 Y205.9710
 X74.6288 Y205.3610
 X74.7474 Y204.7440
 X74.8508 Y204.1240
 X74.9387 Y203.4990
 X75.0113 Y202.8680
 X75.0681 Y202.2320
 X75.1088 Y201.5920
 X75.1335 Y200.9490
 X75.1417 Y200.3000
G0 Z25.0000
 X25.1411 Y225.1900
G1 Z-1.0000
 X225.1420 Y25.1901
G0 Z25.0000
 Y50.1904
G1 Z-1.0000
 X225.1330 Y49.5451
 X225.1080 Y48.9038
 X225.0680 Y48.2668
 X225.0130 Y47.6342
 X224.9400 Y47.0061
 X224.8530 Y46.3829
 X224.7500 Y45.7647
 X224.6330 Y45.1518
 X224.5010 Y44.5442
 X224.3540 Y43.9422
 X224.1930 Y43.3460
 X224.0170 Y42.7558
 X223.8280 Y42.1718
 X223.6240 Y41.5942
 X223.4070 Y41.0231
 X223.1760 Y40.4589
 X222.9330 Y39.9015
 X222.6760 Y39.3514
 X222.4060 Y38.8086
 X222.1240 Y38.2735
 X221.8290 Y37.7460
 X221.5220 Y37.2265
 X221.2030 Y36.7151
 X220.8720 Y36.2122
 X220.5290 Y35.7178
 X220.1750 Y35.2319
 X219.8080 Y34.7553
 X219.4320 Y34.2876
 X219.0440 Y33.8293
 X218.6470 Y33.3806
 X218.2370 Y32.9414
 X217.8190 Y32.5122
 X217.3900 Y32.0932
 X216.9500 Y31.6844
 X216.5010 Y31.2863
 X216.0430 Y30.8987
 X215.5760 Y30.5221
 X215.0990 Y30.1565
 X214.6140 Y29.8024
 X214.1190 Y29.4596
 X213.6150 Y29.1285
 X213.1040 Y28.8093
 X212.5850 Y28.5022
 X212.0580 Y28.2074
 X211.5220 Y27.9250
 X210.9790 Y27.6553
 X210.4290 Y27.3985
 X209.8720 Y27.1547
 X209.3080 Y26.9242
 X208.7370 Y26.7071
 X208.1600 Y26.5036
 X207.5750 Y26.3140
 X206.9850 Y26.1385
 X206.3890 Y25.9771
 X205.7880 Y25.8303
 X205.1790 Y25.6981
 X204.5670 Y25.5806
 X203.9490 Y25.4782
 X203.3250 Y25.3910
 X202.6970 Y25.3192
 X202.0640 Y25.2631
 X201.4280 Y25.2226
 X200.7860 Y25.1983
 X200.1400 Y25.1901
 X199.4960 Y25.1983
 X198.8540 Y25.2226
 X198.2170 Y25.2631
 X197.5850 Y25.3192
 X196.9570 Y25.3910
 X196.3330 Y25.4782
 X195.7150 Y25.5806
 X195.1030 Y25.6981
 X194.4940 Y25.8303
 X193.8930 Y25.9771
 X193.2970 Y26.1385
 X192.7070 Y26.3140
 X192.1220 Y26.5036
 X191.5460 Y26.7071
 X190.9740 Y26.9242
 X190.4100 Y27.1547
 X189.8530 Y27.3985
 X189.3030 Y27.6553
 X188.7600 Y27.9250
 X188.2250 Y28.2074
 X187.6970 Y28.5022
 X187.1780 Y28.8093
 X186.6670 Y29.1285
 X186.1640 Y29.4596
 X185.6690 Y29.8024
 X185.1830 Y30.1565
 X184.7070 Y30.5221
 X184.2390 Y30.8987
 X183.7810 Y31.2863
 X183.3320 Y31.6844
 X182.8930 Y32.0932
 X182.4640 Y32.5122
 X182.0440 Y32.9414
 X181.6360 Y33.3806
 X181.2370 Y33.8293
 X180.8500 Y34.2876
 X180.4740 Y34.7553
 X180.1080 Y35.2319
 X179.7540 Y35.7178
 X179.4110 Y36.2122
 X179.0810 Y36.7151
 X178.7610 Y37.2265
 X178.4540 Y37.7460
 X178.1580 Y38.2735
 X177.8760 Y38.8086
 X177.6070 Y39.3514
 X177.3500 Y39.9015
 X177.1070 Y40.4589
 X176.8760 Y41.0231
 X176.6580 Y41.5942
 X176.4560 Y42.1718
 X176.2650 Y42.7558
 X176.0900 Y43.3460
 X175.9290 Y43.9422
 X175.7820 Y44.5442
 X175.6500 Y45.1518
 X175.5320 Y45.7647
 X175.4290 Y46.3829
 X175.3430 Y47.0061
 X175.2710 Y47.6342
 X175.2150 Y48.2668
 X175.1750 Y48.9038
 X175.1500 Y49.5451
 X175.1420 Y50.1904
 X175.1500 Y50.8357
 X175.1750 Y51.4768
 X175.2150 Y52.1139
 X175.2710 Y52.7464
 X175.3430 Y53.3744
 X175.4290 Y53.9975
 X175.5320 Y54.6157
 X175.6500 Y55.2286
 X175.7820 Y55.8361
 X175.9290 Y56.4381
 X176.0900 Y57.0342
 X176.2650 Y57.6244
 X176.4560 Y58.2083
 X176.6580 Y58.7860
 X176.8760 Y59.3569
 X177.1070 Y59.9213
 X177.3500 Y60.4785
 X177.6070 Y61.0285
 X177.8760 Y61.5712
 X178.1580 Y62.1064
 X178.4540 Y62.6339
 X178.7610 Y63.1533
 X179.0810 Y63.6647
 X179.4110 Y64.1676
 X179.7540 Y64.6621
 X180.1080 Y65.1478
 X180.4740 Y65.6244
 X180.8500 Y66.0921
 X181.2370 Y66.5504
 X181.6360 Y66.9992
 X182.0440 Y67.4382
 X182.4640 Y67.8674
 X182.8930 Y68.2864
 X183.3320 Y68.6951
 X183.7810 Y69.0933
 X184.2390 Y69.4808
 X184.7070 Y69.8575
 X185.1830 Y70.2229
 X185.6690 Y70.5772
 X186.1640 Y70.9199
 X186.6670 Y71.2510
 X187.1780 Y71.5701
 X187.6970 Y71.8772
 X188.2250 Y72.1721
 X188.7600 Y72.4544
 X189.3030 Y72.7242
 X189.8530 Y72.9810
 X190.4100 Y73.2249
 X190.9740 Y73.4554
 X191.5460 Y73.6724
 X192.1220 Y73.8758
 X192.7070 Y74.0654
 X193.2970 Y74.2410
 X193.8930 Y74.4022
 X194.4940 Y74.5492
 X195.1030 Y74.6814
 X195.7150 Y74.7989
 X196.3330 Y74.9013
 X196.9570 Y74.9885
 X197.5850 Y75.0603
 X198.2170 Y75.1164
 X198.8540 Y75.1568
 X199.4960 Y75.1811
 X200.1400 Y75.1893
 X200.7860 Y75.1811
 X201.4280 Y75.1568
 X202.0640 Y75.1164
 X202.6970 Y75.0603
 X203.3250 Y74.9885
 X203.9490 Y74.9013
 X204.5670 Y74.7989
 X205.1790 Y74.6814
 X205.7880 Y74.5492
 X206.3890 Y74.4022
 X206.9850 Y74.2410
 X207.5750 Y74.0654
 X208.1600 Y73.8758
 X208.7370 Y73.6724
 X209.3080 Y73.4554
 X209.8720 Y73.2249
 X210.4290 Y72.9810
 X210.9790 Y72.7242
 X211.5220 Y72.4544
 X212.0580 Y72.1721
 X212.5850 Y71.8772
 X213.1040 Y71.5701
 X213.6150 Y71.2510
 X214.1190 Y70.9199
 X214.6140 Y70.5772
 X215.0990 Y70.2229
 X215.5760 Y69.8575
 X216.0430 Y69.4808
 X216.5010 Y69.0933
 X216.9500 Y68.6951
 X217.3900 Y68.2864
 X217.8190 Y67.8674
 X218.2370 Y67.4382
 X218.6470 Y66.9992
 X219.0440 Y66.5504
 X219.4320 Y66.0921
 X219.8080 Y65.6244
 X220.1750 Y65.1478
 X220.5290 Y64.6621
 X220.8720 Y64.1676
 X221.2030 Y63.6647
 X221.5220 Y63.1533
 X221.8290 Y62.6339
 X222.1240 Y62.1064
 X222.4060 Y61.5712
 X222.6760 Y61.0285
 X222.9330 Y60.4785
 X223.1760 Y59.9213
 X223.4070 Y59.3569
 X223.6240 Y58.7860
 X223.8280 Y58.2083
 X224.0170 Y57.6244
 X224.1930 Y57.0342
 X224.3540 Y56.4381
 X224.5010 Y55.8361
 X224.6330 Y55.2286
 X224.7500 Y54.6157
 X224.8530 Y53.9975
 X224.9400 Y53.3744
 X225.0130 Y52.7464
 X225.0680 Y52.1139
 X225.1080 Y51.4768
 X225.1330 Y50.8357
 X225.1420 Y50.1904
G0 Z25.0000
 X175.1420 Y99.5546
G1 Z-1.0000
 X175.1330 Y98.9257
 X175.1100 Y98.3008
 X175.0680 Y97.6799
 X175.0130 Y97.0633
 X174.9400 Y96.4514
 X174.8530 Y95.8440
 X174.7500 Y95.2415
 X174.6320 Y94.6442
 X174.5000 Y94.0519
 X174.3530 Y93.4653
 X174.1900 Y92.8843
 X174.0150 Y92.3090
 X173.8250 Y91.7399
 X173.6210 Y91.1769
 X173.4030 Y90.6204
 X173.1720 Y90.0704
 X172.9280 Y89.5274
 X172.6690 Y88.9913
 X172.4000 Y88.4622
 X172.1170 Y87.9406
 X171.8210 Y87.4265
 X171.5130 Y86.9203
 X171.1930 Y86.4219
 X170.8610 Y85.9317
 X170.5170 Y85.4499
 X170.1630 Y84.9764
 X169.7960 Y84.5117
 X169.4180 Y84.0560
 X169.0290 Y83.6093
 X168.6310 Y83.1719
 X168.2190 Y82.7440
 X167.8000 Y82.3257
 X167.3690 Y81.9174
 X166.9290 Y81.5189
 X166.4790 Y81.1308
 X166.0190 Y80.7532
 X165.5510 Y80.3861
 X165.0720 Y80.0297
 X164.5860 Y79.6846
 X164.0900 Y79.3504
 X163.5860 Y79.0278
 X163.0740 Y78.7168
 X162.5530 Y78.4174
 X162.0240 Y78.1300
 X161.4860 Y77.8549
 X160.9430 Y77.5919
 X160.3900 Y77.3417
 X159.8320 Y77.1040
 X159.2670 Y76.8793
 X158.6940 Y76.6678
 X158.1150 Y76.4694
 X157.5290 Y76.2847
 X156.9380 Y76.1136
 X156.3400 Y75.9564
 X155.7360 Y75.8132
 X155.1260 Y75.6843
 X154.5130 Y75.5699
 X153.8930 Y75.4700
 X153.2680 Y75.3851
 X152.6380 Y75.3151
 X152.0040 Y75.2604
 X151.3650 Y75.2210
 X150.7220 Y75.1972
 X150.0750 Y75.1893
 X149.4280 Y75.1972
 X148.7850 Y75.2210
 X148.1470 Y75.2604
 X147.5130 Y75.3151
 X146.8830 Y75.3851
 X146.2580 Y75.4700
 X145.6380 Y75.5699
 X145.0240 Y75.6843
 X144.4140 Y75.8132
 X143.8110 Y75.9564
 X143.2120 Y76.1136
 X142.6210 Y76.2847
 X142.0360 Y76.4694
 X141.4570 Y76.6678
 X140.8850 Y76.8793
 X140.3180 Y77.1040
 X139.7600 Y77.3417
 X139.2080 Y77.5919
 X138.6640 Y77.8549
 X138.1270 Y78.1300
 X137.5980 Y78.4174
 X137.0780 Y78.7168
 X136.5650 Y79.0278
 X136.0610 Y79.3504
 X135.5650 Y79.6846
 X135.0780 Y80.0297
 X134.6000 Y80.3861
 X134.1310 Y80.7532
 X133.6720 Y81.1308
 X133.2220 Y81.5189
 X132.7820 Y81.9174
 X132.3510 Y82.3257
 X131.9310 Y82.7440
 X131.5210 Y83.1719
 X131.1220 Y83.6093
 X130.7330 Y84.0560
 X130.3560 Y84.5117
 X129.9890 Y84.9764
 X129.6340 Y85.4499
 X129.2910 Y85.9317
 X128.9590 Y86.4219
 X128.6390 Y86.9203
 X128.3310 Y87.4265
 X128.0350 Y87.9406
 X127.7520 Y88.4622
 X127.4820 Y88.9913
 X127.2240 Y89.5274
 X126.9800 Y90.0704
 X126.7480 Y90.6204
 X126.5310 Y91.1769
 X126.3270 Y91.7399
 X126.1370 Y92.3090
 X125.9610 Y92.8843
 X125.7990 Y93.4653
 X125.6520 Y94.0519
 X125.5190 Y94.6442
 X125.4010 Y95.2415
 X125.2990 Y95.8440
 X125.2110 Y96.4514
 X125.1390 Y97.0633
 X125.0830 Y97.6799
 X125.0430 Y98.3008
 X125.0180 Y98.9257
 X125.0100 Y99.5546
 X125.0180 Y100.1830
 X125.0430 Y100.8080
 X125.0830 Y101.4290
 X125.1390 Y102.0460
 X125.2110 Y102.6570
 X125.2990 Y103.2650
 X125.4010 Y103.8670
 X125.5190 Y104.4650
 X125.6520 Y105.0570
 X125.7990 Y105.6430
 X125.9610 Y106.2240
 X126.1370 Y106.7990
 X126.3270 Y107.3680
 X126.5310 Y107.9310
 X126.7480 Y108.4880
 X126.9800 Y109.0380
 X127.2240 Y109.5810
 X127.4820 Y110.1170
 X127.7520 Y110.6460
 X128.0350 Y111.1670
 X128.3310 Y111.6810
 X128.6390 Y112.1880
 X128.9590 Y112.6860
 X129.2910 Y113.1760
 X129.6340 Y113.6580
 X129.9890 Y114.1310
 X130.3560 Y114.5960
 X130.7330 Y115.0520
 X131.1220 Y115.4980
 X131.5210 Y115.9360
 X131.9310 Y116.3640
 X132.3510 Y116.7820
 X132.7820 Y117.1900
 X133.2220 Y117.5890
 X133.6720 Y117.9770
 X134.1310 Y118.3540
 X134.6000 Y118.7220
 X135.0780 Y119.0780
 X135.5650 Y119.4230
 X136.0610 Y119.7570
 X136.5650 Y120.0800
 X137.0780 Y120.3910
 X137.5980 Y120.6900
 X138.1270 Y120.9770
 X138.6640 Y121.2530
 X139.2080 Y121.5160
 X139.7600 Y121.7660
 X140.3180 Y122.0030
 X140.8850 Y122.2280
 X141.4570 Y122.4400
 X142.0360 Y122.6380
 X142.6210 Y122.8230
 X143.2120 Y122.9940
 X143.8110 Y123.1510
 X144.4140 Y123.2940
 X145.0240 Y123.4230
 X145.6380 Y123.5380
 X146.2580 Y123.6370
 X146.8830 Y123.7220
 X147.5130 Y123.7920
 X148.1470 Y123.8470
 X148.7850 Y123.8860
 X149.4280 Y123.9100
 X150.0750 Y123.9180
 X150.7220 Y123.9100
 X151.3650 Y123.8860
 X152.0040 Y123.8470
 X152.6380 Y123.7920
 X153.2680 Y123.7220
 X153.8930 Y123.6370
 X154.5130 Y123.5380
 X155.1260 Y123.4230
 X155.7360 Y123.2940
 X156.3400 Y123.1510
 X156.9380 Y122.9940
 X157.5290 Y122.8230
 X158.1150 Y122.6380
 X158.6940 Y122.4400
 X159.2670 Y122.2280
 X159.8320 Y122.0030
 X160.3900 Y121.7660
 X160.9430 Y121.5160
 X161.4860 Y121.2530
 X162.0240 Y120.9770
 X162.5530 Y120.6900
 X163.0740 Y120.3910
 X163.5860 Y120.0800
 X164.0900 Y119.7570
 X164.5860 Y119.4230
 X165.0720 Y119.0780
 X165.5510 Y118.7220
 X166.0190 Y118.3540
 X166.4790 Y117.9770
 X166.9290 Y117.5890
 X167.3690 Y117.1900
 X167.8000 Y116.7820
 X168.2190 Y116.3640
 X168.6310 Y115.9360
 X169.0290 Y115.4980
 X169.4180 Y115.0520
 X169.7960 Y114.5960
 X170.1630 Y114.1310
 X170.5170 Y113.6580
 X170.8610 Y113.1760
 X171.1930 Y112.6860
 X171.5130 Y112.1880
 X171.8210 Y111.6810
 X172.1170 Y111.1670
 X172.4000 Y110.6460
 X172.6690 Y110.1170
 X172.9280 Y109.5810
 X173.1720 Y109.0380
 X173.4030 Y108.4880
 X173.6210 Y107.9310
 X173.8250 Y107.3680
 X174.0150 Y106.7990
 X174.1900 Y106.2240
 X174.3530 Y105.6430
 X174.5000 Y105.0570
 X174.6320 Y104.4650
 X174.7500 Y103.8670
 X174.8530 Y103.2650
 X174.9400 Y102.6570
 X175.0130 Y102.0460
 X175.0680 Y101.4290
 X175.1100 Y100.8080
 X175.1330 Y100.1830
 X175.1420 Y99.5546
G0 Z25.0000
 X136.9340 Y62.6904
G1 Z-1.0000
 X137.6410 Y63.3974
 X138.3480 Y62.6904
 X137.6410 Y61.9824
 X136.9340 Y62.6904
G0 Z25.0000
 X134.1050
G1 Z-1.0000
 X137.6410 Y66.2251
 X141.1780 Y62.6904
 X137.6410 Y59.1544
 X134.1050 Y62.6904
G0 Z25.0000
 X131.2780
G1 Z-1.0000
 X137.6410 Y69.0544
 X144.0060 Y62.6904
 X137.6410 Y56.3251
 X131.2780 Y62.6904
G0 Z25.0000
 X128.4480
G1 Z-1.0000
 X137.6410 Y71.8819
 X146.8350 Y62.6904
 X137.6410 Y53.4976
 X128.4480 Y62.6904
G0 Z25.0000
 X125.6210
G1 Z-1.0000
 X137.6410 Y74.7113
 X149.6610 Y62.6904
 X137.6410 Y50.6683
 X125.6210 Y62.6904
G0 Z25.0000
 X122.7910
G1 Z-1.0000
 X137.6410 Y77.5388
 X152.4920 Y62.6904
 X137.6410 Y47.8410
 X122.7910 Y62.6904
G0 Z25.0000
 X119.9640
G1 Z-1.0000
 X137.6410 Y80.3681
 X155.3180 Y62.6904
 X137.6410 Y45.0115
 X119.9640 Y62.6904
G0 Z25.0000
 X175.1420 Y75.1893
G1 Z-1.0000
 X200.1400
 Y50.1904
 X175.1420
 Y75.1893
G0 Z25.0000
 X200.1400 Y50.1904
G1 Z-1.0000
 X225.1420
 Y25.1901
 X200.1400
 Y50.1904
G0 Z25.0000
 X225.1420 Y125.1900
G1 Z-1.0000
 X225.1330 Y123.8980
 X225.1080 Y122.6090
 X225.0680 Y121.3250
 X225.0110 Y120.0440
 X224.9380 Y118.7680
 X224.8500 Y117.4960
 X224.7440 Y116.2290
 X224.6250 Y114.9660
 X224.4890 Y113.7070
 X224.3370 Y112.4540
 X224.1710 Y111.2050
 X223.9890 Y109.9610
 X223.7920 Y108.7220
 X223.5790 Y107.4880
 X223.3510 Y106.2600
 X223.1100 Y105.0370
 X222.8530 Y103.8190
 X222.5810 Y102.6060
 X222.2940 Y101.4000
 X221.9930 Y100.1980
 X221.6780 Y99.0032
 X221.3470 Y97.8137
 X221.0030 Y96.6304
 X220.6460 Y95.4531
 X220.2740 Y94.2819
 X219.8880 Y93.1171
 X219.4870 Y91.9586
 X219.0740 Y90.8067
 X218.6460 Y89.6612
 X218.2040 Y88.5225
 X217.7500 Y87.3906
 X217.2820 Y86.2654
 X216.8010 Y85.1474
 X216.3070 Y84.0362
 X215.8000 Y82.9324
 X215.2810 Y81.8358
 X214.7470 Y80.7465
 X214.2010 Y79.6647
 X213.6430 Y78.5906
 X213.0720 Y77.5240
 X212.4870 Y76.4651
 X211.8920 Y75.4142
 X211.2850 Y74.3713
 X210.6640 Y73.3363
 X210.0320 Y72.3096
 X209.3880 Y71.2910
 X208.7310 Y70.2807
 X208.0630 Y69.2789
 X207.3830 Y68.2858
 X206.6920 Y67.3011
 X205.9890 Y66.3254
 X205.2750 Y65.3583
 X204.5490 Y64.4003
 X203.8130 Y63.4513
 X203.0650 Y62.5114
 X202.3060 Y61.5806
 X201.5360 Y60.6593
 X200.7560 Y59.7474
 X199.9650 Y58.8450
 X199.1630 Y57.9522
 X198.3510 Y57.0692
 X197.5280 Y56.1960
 X196.6940 Y55.3326
 X195.8510 Y54.4793
 X194.9990 Y53.6361
 X194.1350 Y52.8031
 X193.2630 Y51.9804
 X192.3790 Y51.1682
 X191.4860 Y50.3664
 X190.5830 Y49.5753
 X189.6720 Y48.7947
 X188.7500 Y48.0251
 X187.8190 Y47.2664
 X186.8810 Y46.5186
 X185.9310 Y45.7819
 X184.9720 Y45.0564
 X184.0060 Y44.3422
 X183.0310 Y43.6394
 X182.0460 Y42.9482
 X181.0530 Y42.2685
 X180.0500 Y41.6004
 X179.0400 Y40.9442
 X178.0220 Y40.2997
 X176.9940 Y39.6674
 X175.9600 Y39.0471
 X174.9170 Y38.4389
 X173.8650 Y37.8431
 X172.8070 Y37.2594
 X171.7400 Y36.6885
 X170.6670 Y36.1300
 X169.5850 Y35.5842
 X168.4960 Y35.0511
 X167.3990 Y34.5310
 X166.2940 Y34.0237
 X165.1830 Y33.5296
 X164.0650 Y33.0486
 X162.9400 Y32.5808
 X161.8080 Y32.1264
 X160.6690 Y31.6854
 X159.5250 Y31.2581
 X158.3720 Y30.8443
 X157.2140 Y30.4443
 X156.0490 Y30.0581
 X154.8780 Y29.6858
 X153.7010 Y29.3276
 X152.5170 Y28.9836
 X151.3280 Y28.6539
 X150.1330 Y28.3383
 X148.9320 Y28.0374
 X147.7250 Y27.7508
 X146.5130 Y27.4789
 X145.2940 Y27.2217
 X144.0710 Y26.9794
 X142.8430 Y26.7521
 X141.6080 Y26.5396
 X140.3690 Y26.3424
 X139.1260 Y26.1603
 X137.8770 Y25.9935
 X136.6240 Y25.8422
 X135.3650 Y25.7064
 X134.1020 Y25.5862
 X132.8350 Y25.4817
 X131.5630 Y25.3931
 X130.2870 Y25.3203
 X129.0070 Y25.2635
 X127.7220 Y25.2228
 X126.4330 Y25.1983
 X125.1410 Y25.1901
 X123.8480 Y25.1983
 X122.5600 Y25.2228
 X121.2750 Y25.2635
 X119.9950 Y25.3203
 X118.7190 Y25.3931
 X117.4470 Y25.4817
 X116.1790 Y25.5862
 X114.9160 Y25.7064
 X113.6580 Y25.8422
 X112.4040 Y25.9935
 X111.1560 Y26.1603
 X109.9120 Y26.3424
 X108.6730 Y26.5396
 X107.4390 Y26.7521
 X106.2110 Y26.9794
 X104.9870 Y27.2217
 X103.7690 Y27.4789
 X102.5570 Y27.7508
 X101.3500 Y28.0374
 X100.1490 Y28.3383
 X98.9539 Y28.6539
 X97.7646 Y28.9836
 X96.5811 Y29.3276
 X95.4037 Y29.6858
 X94.2326 Y30.0581
 X93.0679 Y30.4443
 X91.9094 Y30.8443
 X90.7575 Y31.2581
 X89.6121 Y31.6854
 X88.4733 Y32.1264
 X87.3412 Y32.5808
 X86.2162 Y33.0486
 X85.0982 Y33.5296
 X83.9871 Y34.0237
 X82.8832 Y34.5310
 X81.7867 Y35.0511
 X80.6974 Y35.5842
 X79.6156 Y36.1300
 X78.5414 Y36.6885
 X77.4749 Y37.2594
 X76.4160 Y37.8431
 X75.3651 Y38.4389
 X74.3221 Y39.0471
 X73.2872 Y39.6674
 X72.2604 Y40.2997
 X71.2418 Y40.9442
 X70.2317 Y41.6004
 X69.2299 Y42.2685
 X68.2367 Y42.9482
 X67.2521 Y43.6394
 X66.2763 Y44.3422
 X65.3092 Y45.0564
 X64.3511 Y45.7819
 X63.4021 Y46.5186
 X62.4622 Y47.2664
 X61.5315 Y48.0251
 X60.6101 Y48.7947
 X59.6982 Y49.5753
 X58.7958 Y50.3664
 X57.9031 Y51.1682
 X57.0200 Y51.9804
 X56.1468 Y52.8031
 X55.2835 Y53.6361
 X54.4301 Y54.4793
 X53.5869 Y55.3326
 X52.7540 Y56.1960
 X51.9313 Y57.0692
 X51.1190 Y57.9522
 X50.3172 Y58.8450
 X49.5261 Y59.7474
 X48.7457 Y60.6593
 X47.9760 Y61.5806
 X47.2172 Y62.5114
 X46.4694 Y63.4513
 X45.7328 Y64.4003
 X45.0074 Y65.3583
 X44.2932 Y66.3254
 X43.5904 Y67.3011
 X42.8990 Y68.2858
 X42.2193 Y69.2789
 X41.5512 Y70.2807
 X40.8950 Y71.2910
 X40.2507 Y72.3096
 X39.6183 Y73.3363
 X38.9979 Y74.3713
 X38.3897 Y75.4142
 X37.7939 Y76.4651
 X37.2104 Y77.5240
 X36.6394 Y78.5906
 X36.0808 Y79.6647
 X35.5351 Y80.7465
 X35.0019 Y81.8358
 X34.4818 Y82.9324
 X33.9746 Y84.0362
 X33.4804 Y85.1474
 X32.9994 Y86.2654
 X32.5317 Y87.3906
 X32.0774 Y88.5225
 X31.6364 Y89.6612
 X31.2089 Y90.8067
 X30.7951 Y91.9586
 X30.3951 Y93.1171
 X30.0090 Y94.2819
 X29.6368 Y95.4531
 X29.2786 Y96.6304
 X28.9346 Y97.8137
 X28.6047 Y99.0032
 X28.2893 Y100.1980
 X27.9882 Y101.4000
 X27.7017 Y102.6060
 X27.4299 Y103.8190
 X27.1726 Y105.0370
 X26.9303 Y106.2600
 X26.7029 Y107.4880
 X26.4906 Y108.7220
 X26.2932 Y109.9610
 X26.1111 Y111.2050
 X25.9444 Y112.4540
 X25.7932 Y113.7070
 X25.6574 Y114.9660
 X25.5371 Y116.2290
 X25.4326 Y117.4960
 X25.3439 Y118.7680
 X25.2711 Y120.0440
 X25.2143 Y121.3250
 X25.1736 Y122.6090
 X25.1492 Y123.8980
 X25.1411 Y125.1900
 X50.1414
 Y100.1900
 X25.1411
 Y125.1900
 X25.1492 Y126.4830
 X25.1736 Y127.7710
 X25.2143 Y129.0560
 X25.2711 Y130.3360
 X25.3439 Y131.6120
 X25.4326 Y132.8840
 X25.5371 Y134.1520
 X25.6574 Y135.4150
 X25.7932 Y136.6730
 X25.9444 Y137.9270
 X26.1111 Y139.1750
 X26.2932 Y140.4190
 X26.4906 Y141.6580
 X26.7029 Y142.8920
 X26.9303 Y144.1210
 X27.1726 Y145.3440
 X27.4299 Y146.5610
 X27.7017 Y147.7740
 X27.9882 Y148.9810
 X28.2893 Y150.1820
 X28.6047 Y151.3780
 X28.9346 Y152.5670
 X29.2786 Y153.7500
 X29.6368 Y154.9280
 X30.0090 Y156.0990
 X30.3951 Y157.2640
 X30.7951 Y158.4220
 X31.2089 Y159.5740
 X31.6364 Y160.7190
 X32.0774 Y161.8580
 X32.5317 Y162.9900
 X32.9994 Y164.1150
 X33.4804 Y165.2330
 X33.9746 Y166.3440
 X34.4818 Y167.4470
 X35.0019 Y168.5440
 X35.5351 Y169.6330
 X36.0808 Y170.7150
 X36.6394 Y171.7900
 X37.2104 Y172.8570
 X37.7939 Y173.9150
 X38.3897 Y174.9670
 X38.9979 Y176.0080
 X39.6183 Y177.0440
 X40.2507 Y178.0710
 X40.8950 Y179.0890
 X41.5512 Y180.1000
 X42.2193 Y181.1010
 X42.8990 Y182.0940
 X43.5904 Y183.0790
 X44.2932 Y184.0560
 X45.0074 Y185.0220
 X45.7328 Y185.9810
 X46.4694 Y186.9290
 X47.2172 Y187.8690
 X47.9760 Y188.8000
 X48.7457 Y189.7210
 X49.5261 Y190.6330
 X50.3172 Y191.5350
 X51.1190 Y192.4280
 X51.9313 Y193.3110
 X52.7540 Y194.1850
 X53.5869 Y195.0470
 X54.4301 Y195.9010
 X55.2835 Y196.7440
 X56.1468 Y197.5780
 X57.0200 Y198.4000
 X57.9031 Y199.2120
 X58.7958 Y200.0140
 X59.6982 Y200.8060
 X60.6101 Y201.5860
 X61.5315 Y202.3560
 X62.4622 Y203.1140
 X63.4021 Y203.8610
 X64.3511 Y204.5990
 X65.3092 Y205.3240
 X66.2763 Y206.0380
 X67.2521 Y206.7400
 X68.2367 Y207.4320
 X69.2299 Y208.1110
 X70.2317 Y208.7790
 X71.2418 Y209.4360
 X72.2604 Y210.0810
 X73.2872 Y210.7120
 X74.3221 Y211.3330
 X75.3651 Y211.9420
 X76.4160 Y212.5380
 X77.4749 Y213.1210
 X78.5414 Y213.6920
 X79.6156 Y214.2500
 X80.6974 Y214.7960
 X81.7867 Y215.3290
 X82.8832 Y215.8490
 X83.9871 Y216.3570
 X85.0982 Y216.8500
 X86.2162 Y217.3320
 X87.3412 Y217.8000
 X88.4733 Y218.2540
 X89.6121 Y218.6940
 X90.7575 Y219.1220
 X91.9094 Y219.5360
 X93.0679 Y219.9360
 X94.2326 Y220.3220
 X95.4037 Y220.6940
 X96.5811 Y221.0530
 X97.7646 Y221.3970
 X98.9539 Y221.7260
 X100.1490 Y222.0420
 X101.3500 Y222.3430
 X102.5570 Y222.6290
 X103.7690 Y222.9010
 X104.9870 Y223.1580
 X106.2110 Y223.4010
 X107.4390 Y223.6280
 X108.6730 Y223.8400
 X109.9120 Y224.0380
 X111.1560 Y224.2190
 X112.4040 Y224.3860
 X113.6580 Y224.5380
 X114.9160 Y224.6740
 X116.1790 Y224.7940
 X117.4470 Y224.8990
 X118.7190 Y224.9870
 X119.9950 Y225.0600
 X121.2750 Y225.1170
 X122.5600 Y225.1570
 X123.8480 Y225.1820
 X125.1410 Y225.1900
 X126.4330 Y225.1820
 X127.7220 Y225.1570
 X129.0070 Y225.1170
 X130.2870 Y225.0600
 X131.5630 Y224.9870
 X132.8350 Y224.8990
 X134.1020 Y224.7940
 X135.3650 Y224.6740
 X136.6240 Y224.5380
 X137.8770 Y224.3860
 X139.1260 Y224.2190
 X140.3690 Y224.0380
 X141.6080 Y223.8400
 X142.8430 Y223.6280
 X144.0710 Y223.4010
 X145.2940 Y223.1580
 X146.5130 Y222.9010
 X147.7250 Y222.6290
 X148.9320 Y222.3430
 X150.1330 Y222.0420
 X151.3280 Y221.7260
 X152.5170 Y221.3970
 X153.7010 Y221.0530
 X154.8780 Y220.6940
 X156.0490 Y220.3220
 X157.2140 Y219.9360
 X158.3720 Y219.5360
 X159.5250 Y219.1220
 X160.6690 Y218.6940
 X161.8080 Y218.2540
 X162.9400 Y217.8000
 X164.0650 Y217.3320
 X165.1830 Y216.8500
 X166.2940 Y216.3570
 X167.3990 Y215.8490
 X168.4960 Y215.3290
 X169.5850 Y214.7960
 X170.6670 Y214.2500
 X171.7400 Y213.6920
 X172.8070 Y213.1210
 X173.8650 Y212.5380
 X174.9170 Y211.9420
 X175.9600 Y211.3330
 X176.9940 Y210.7120
 X178.0220 Y210.0810
 X179.0400 Y209.4360
 X180.0500 Y208.7790
 X181.0530 Y208.1110
 X182.0460 Y207.4320
 X183.0310 Y206.7400
 X184.0060 Y206.0380
 X184.9720 Y205.3240
 X185.9310 Y204.5990
 X186.8810 Y203.8610
 X187.8190 Y203.1140
 X188.7500 Y202.3560
 X189.6720 Y201.5860
 X190.5830 Y200.8060
 X191.4860 Y200.0140
 X192.3790 Y199.2120
 X193.2630 Y198.4000
 X194.1350 Y197.5780
 X194.9990 Y196.7440
 X195.8510 Y195.9010
 X196.6940 Y195.0470
 X197.5280 Y194.1850
 X198.3510 Y193.3110
 X199.1630 Y192.4280
 X199.9650 Y191.5350
 X200.7560 Y190.6330
 X201.5360 Y189.7210
 X202.3060 Y188.8000
 X203.0650 Y187.8690
 X203.8130 Y186.9290
 X204.5490 Y185.9810
 X205.2750 Y185.0220
 X205.9890 Y184.0560
 X206.6920 Y183.0790
 X207.3830 Y182.0940
 X208.0630 Y181.1010
 X208.7310 Y180.1000
 X209.3880 Y179.0890
 X210.0320 Y178.0710
 X210.6640 Y177.0440
 X211.2850 Y176.0080
 X211.8920 Y174.9670
 X212.4870 Y173.9150
 X213.0720 Y172.8570
 X213.6430 Y171.7900
 X214.2010 Y170.7150
 X214.7470 Y169.6330
 X215.2810 Y168.5440
 X215.8000 Y167.4470
 X216.3070 Y166.3440
 X216.8010 Y165.2330
 X217.2820 Y164.1150
 X217.7500 Y162.9900
 X218.2040 Y161.8580
 X218.6460 Y160.7190
 X219.0740 Y159.5740
 X219.4870 Y158.4220
 X219.8880 Y157.2640
 X220.2740 Y156.0990
 X220.6460 Y154.9280
 X221.0030 Y153.7500
 X221.3470 Y152.5670
 X221.6780 Y151.3780
 X221.9930 Y150.1820
 X222.2940 Y148.9810
 X222.5810 Y147.7740
 X222.8530 Y146.5610
 X223.1100 Y145.3440
 X223.3510 Y144.1210
 X223.5790 Y142.8920
 X223.7920 Y141.6580
 X223.9890 Y140.4190
 X224.1710 Y139.1750
 X224.3370 Y137.9270
 X224.4890 Y136.6730
 X224.6250 Y135.4150
 X224.7440 Y134.1520
 X224.8500 Y132.8840
 X224.9380 Y131.6120
 X225.0110 Y130.3360
 X225.0680 Y129.0560
 X225.1080 Y127.7710
 X225.1330 Y126.4830
 X225.1420 Y125.1900
G0 Z25.0000
 X15.1406 Y235.1900
G1 Z-1.0000
 X235.1420
 Y15.1894
 X15.1406
 Y235.1900
G0 Z25.0000
 X10.1409 Y240.1900
G1 Z-1.0000
 X240.1420
 Y10.1899
 X10.1409
 Y240.1900
G0 Z25.0000
 X0.1404 Y250.1900
G1 Z-1.0000
 X250.1420
 Y0.1898
 X0.1404
 Y250.1900
G0 Z25.0000
 X185.1780 Y206.2920
G1 Z-1.0000
 X185.1850 Y205.7360
 X185.2030 Y205.2250
 X185.2350 Y204.7610
 X185.2790 Y204.3430
 X185.3360 Y203.9690
 X185.4060 Y203.6420
 X185.4870 Y203.3610
 X185.5830 Y203.1250
 X185.6920 Y202.9280
 X185.8130 Y202.7560
 X185.9440 Y202.6110
 X186.0870 Y202.4930
 X186.2420 Y202.4000
 X186.4080 Y202.3350
 X186.5850 Y202.2940
 X186.7740 Y202.2820
 X187.0210 Y202.3040
 X187.2510 Y202.3710
 X187.4640 Y202.4820
 X187.6580 Y202.6380
 X187.8360 Y202.8440
 X187.9870 Y203.1040
 X188.1120 Y203.4150
 X188.2120 Y203.7780
 X188.2560 Y203.9860
 X188.2920 Y204.2210
 X188.3240 Y204.4830
 X188.3490 Y204.7720
 X188.3680 Y205.0890
 X188.3830 Y205.4320
 X188.3920 Y205.8030
 X188.3940 Y206.2010
 X188.3880 Y206.7790
 X188.3680 Y207.3080
 X188.3360 Y207.7890
 X188.2900 Y208.2180
 X188.2330 Y208.5990
 X188.1610 Y208.9290
 X188.0780 Y209.2110
 X187.9810 Y209.4420
 X187.8740 Y209.6380
 X187.7530 Y209.8070
 X187.6190 Y209.9510
 X187.4720 Y210.0680
 X187.3130 Y210.1600
 X187.1400 Y210.2250
 X186.9560 Y210.2640
 X186.7570 Y210.2760
 X186.5560 Y210.2640
 X186.3680 Y210.2240
 X186.1960 Y210.1570
 X186.0380 Y210.0640
 X185.8940 Y209.9440
 X185.7650 Y209.7990
 X185.6500 Y209.6250
 X185.5500 Y209.4250
 X185.4620 Y209.1920
 X185.3880 Y208.9140
 X185.3240 Y208.5890
 X185.2710 Y208.2210
 X185.2310 Y207.8060
 X185.2010 Y207.3460
 X185.1830 Y206.8420
 X185.1780 Y206.2920
G0 Z25.0000
 X141.4890 Y205.3570
G1 Z-1.0000
 X141.4180 Y205.8110
 X141.3070 Y206.1940
 X141.1540 Y206.5100
 X140.9600 Y206.7560
 X140.7320 Y206.9390
 X140.4690 Y207.0710
 X140.1740 Y207.1500
 X139.8430 Y207.1760
 X139.6470 Y207.1670
 X139.4620 Y207.1360
 X139.2880 Y207.0870
 X139.1220 Y207.0170
 X138.9670 Y206.9280
 X138.8220 Y206.8180
 X138.6870 Y206.6890
 X138.5620 Y206.5400
 X138.4230 Y206.3170
 X138.3120 Y206.0460
 X138.2280 Y205.7260
 X138.1730 Y205.3570
 X141.4890
G0 Z25.0000
 X115.1210 Y204.3570
G1 Z-1.0000
 X114.4120 Y204.1240
 X113.6750 Y203.9180
 X113.2090 Y203.7830
 X112.8370 Y203.6490
 X112.5600 Y203.5140
 X112.3760 Y203.3820
 X112.2530 Y203.2400
 X112.1650 Y203.0900
 X112.1130 Y202.9310
 X112.0950 Y202.7610
 X112.1120 Y202.5710
 X112.1630 Y202.4000
 X112.2480 Y202.2440
 X112.3680 Y202.1080
 X112.5250 Y202.0000
 X112.7130 Y201.9220
 X112.9340 Y201.8750
 X113.1870 Y201.8600
 X113.4620 Y201.8780
 X113.7280 Y201.9280
 X113.9830 Y202.0140
 X114.2280 Y202.1330
 X114.4540 Y202.2760
 X114.6440 Y202.4350
 X114.7970 Y202.6070
 X114.9150 Y202.7940
 X115.0050 Y203.0070
 X115.0700 Y203.2490
 X115.1080 Y203.5190
 X115.1210 Y203.8190
 Y204.3570
G0 Z25.0000
 X101.1650 Y207.1430
G1 Z-1.0000
 X102.0820
 X102.3430 Y207.1490
 X102.5840 Y207.1670
 X102.8040 Y207.1960
 X103.0040 Y207.2360
 X103.1840 Y207.2890
 X103.3440 Y207.3530
 X103.4840 Y207.4280
 X103.6040 Y207.5150
 X103.7950 Y207.7180
 X103.9320 Y207.9470
 X104.0150 Y208.2030
 X104.0420 Y208.4830
 X104.0180 Y208.7570
 X103.9470 Y209.0100
 X103.8280 Y209.2400
 X103.6620 Y209.4500
 X103.5560 Y209.5430
 X103.4300 Y209.6240
 X103.2820 Y209.6920
 X103.1140 Y209.7470
 X102.9240 Y209.7920
 X102.7140 Y209.8220
 X102.4830 Y209.8400
 X102.2310 Y209.8470
 X101.1650
 Y207.1430
G0 Z25.0000
 X117.6590 Y178.2400
G1 Z-1.0000
 X117.6630 Y177.9620
 X117.6720 Y177.7070
 X117.6880 Y177.4750
 X117.7100 Y177.2650
 X117.7390 Y177.0790
 X117.7740 Y176.9150
 X117.8150 Y176.7750
 X117.8620 Y176.6570
 X117.9770 Y176.4720
 X118.1140 Y176.3400
 X118.2750 Y176.2610
 X118.4580 Y176.2350
 X118.5810 Y176.2470
 X118.6960 Y176.2810
 X118.8030 Y176.3360
 X118.9000 Y176.4140
 X118.9880 Y176.5170
 X119.0640 Y176.6470
 X119.1270 Y176.8030
 X119.1770 Y176.9830
 X119.2170 Y177.2060
 X119.2450 Y177.4810
 X119.2620 Y177.8110
 X119.2680 Y178.1940
 X119.2650 Y178.4850
 X119.2550 Y178.7490
 X119.2390 Y178.9890
 X119.2160 Y179.2040
 X119.1870 Y179.3940
 X119.1520 Y179.5600
 X119.1100 Y179.7000
 X119.0610 Y179.8150
 X118.9470 Y179.9990
 X118.8070 Y180.1290
 X118.6410 Y180.2070
 X118.4490 Y180.2330
 X118.2550 Y180.2070
 X118.0900 Y180.1260
 X117.9530 Y179.9930
 X117.8460 Y179.8070
 X117.8020 Y179.6900
 X117.7640 Y179.5510
 X117.7320 Y179.3890
 X117.7060 Y179.2040
 X117.6860 Y178.9970
 X117.6710 Y178.7680
 X117.6620 Y178.5150
 X117.6590 Y178.2400
G0 Z25.0000
 X95.8151 Y177.7740
G1 Z-1.0000
 X95.7800 Y178.0000
 X95.7242 Y178.1920
 X95.6476 Y178.3490
 X95.5506 Y178.4720
 X95.4365 Y178.5640
 X95.3056 Y178.6310
 X95.1575 Y178.6690
 X94.9925 Y178.6830
 X94.8019 Y178.6630
 X94.6315 Y178.6030
 X94.4814 Y178.5040
 X94.3514 Y178.3640
 X94.2819 Y178.2530
 X94.2264 Y178.1180
 X94.1847 Y177.9570
 X94.1571 Y177.7740
 X95.8151
G0 Z25.0000
 X82.6311 Y177.2740
G1 Z-1.0000
 X82.2768 Y177.1560
 X81.9079 Y177.0540
 X81.6751 Y176.9860
 X81.4893 Y176.9180
 X81.3506 Y176.8510
 X81.2589 Y176.7850
 X81.1532 Y176.6400
 X81.1181 Y176.4750
 X81.1522 Y176.2940
 X81.2546 Y176.1490
 X81.3329 Y176.0940
 X81.4271 Y176.0560
 X81.5375 Y176.0320
 X81.6639 Y176.0250
 X81.9347 Y176.0580
 X82.1849 Y176.1610
 X82.3926 Y176.3130
 X82.5282 Y176.4920
 X82.6054 Y176.7190
 X82.6311 Y177.0040
 Y177.2740
G0 Z25.0000
 X75.6528 Y178.6670
G1 Z-1.0000
 X76.1118
 X76.3624 Y178.6780
 X76.5726 Y178.7120
 X76.7426 Y178.7710
 X76.8724 Y178.8530
 X76.9682 Y178.9540
 X77.0367 Y179.0680
 X77.0778 Y179.1960
 X77.0915 Y179.3360
 X77.0796 Y179.4740
 X77.0440 Y179.6000
 X76.9846 Y179.7150
 X76.9013 Y179.8190
 X76.7854 Y179.9070
 X76.6275 Y179.9680
 X76.4278 Y180.0060
 X76.1863 Y180.0180
 X75.6528
 Y178.6670
G0 Z25.0000
 X59.4183 Y177.7740
G1 Z-1.0000
 X59.3832 Y178.0000
 X59.3274 Y178.1920
 X59.2508 Y178.3490
 X59.1537 Y178.4720
 X59.0397 Y178.5640
 X58.9088 Y178.6310
 X58.7607 Y178.6690
 X58.5957 Y178.6830
 X58.4051 Y178.6630
 X58.2349 Y178.6030
 X58.0846 Y178.5040
 X57.9547 Y178.3640
 X57.8851 Y178.2530
 X57.8297 Y178.1180
 X57.7881 Y177.9570
 X57.7603 Y177.7740
 X59.4183
G0 Z25.0000
 X68.6954 Y205.3570
G1 Z-1.0000
 X68.6250 Y205.8110
 X68.5133 Y206.1940
 X68.3604 Y206.5100
 X68.1661 Y206.7560
 X67.9382 Y206.9390
 X67.6761 Y207.0710
 X67.3800 Y207.1500
 X67.0496 Y207.1760
 X66.8542 Y207.1670
 X66.6689 Y207.1360
 X66.4936 Y207.0870
 X66.3283 Y207.0170
 X66.1733 Y206.9280
 X66.0282 Y206.8180
 X65.8932 Y206.6890
 X65.7683 Y206.5400
 X65.6293 Y206.3170
 X65.5181 Y206.0460
 X65.4349 Y205.7260
 X65.3796 Y205.3570
 X68.6954
G0 Z25.0000
M5 (stop spindle)
G04 P3 (wait for 3 seconds)
G0 Z25.0000
M2 (end program)
