startshape trunk

rule trunk {
 SQUARE{}
 SQUARE{y 1}
 SQUARE{y 2}
 SQUARE{y 3}
 SQUARE{y 4}
 SQUARE{y 5}
 SQUARE{y 6}
 SQUARE{y 7}
 SQUARE{y 8}
 divide {y 8.5 size 0.75}
}

rule branch 0.1 
{
    trunk{ r 10 }
}
rule branch 0.1 
{
    trunk{ r -10 }
}
rule branch 0.005 
{
}
   
rule divide {
 branch {size 0.75 rotate -60}
 branch {size 0.75 rotate 60}
}
